; HEADER_BLOCK_START
; generated by OrcaSlicer 2.2.0 on 2025-01-15 at 01:06:50
; total layer number: 1
; filament_density: 1.24
; filament_diameter: 1.75
; max_z_height: 0.25
; HEADER_BLOCK_END

; THUMBNAIL_BLOCK_START

;
; THUMBNAIL_BLOCK_END

; THUMBNAIL_BLOCK_START

;
; THUMBNAIL_BLOCK_END

; THUMBNAIL_BLOCK_START

;
; THUMBNAIL_BLOCK_END

; external perimeters extrusion width = 0.40mm
; perimeters extrusion width = 0.42mm
; infill extrusion width = 0.45mm
; solid infill extrusion width = 0.45mm
; top infill extrusion width = 0.42mm
; first layer extrusion width = 0.50mm

; EXECUTABLE_BLOCK_START
EXCLUDE_OBJECT_DEFINE NAME=Cube_id_0_copy_0 CENTER=175,175 POLYGON=[[137.5,137.5],[212.5,137.5],[212.5,212.5],[137.5,212.5],[137.5,137.5]]
M73 P0 R3
;TYPE:Custom
G28
G90
G1 X0 F9000
G1 Y20
G1 Z0.600 F600
G1 Y0 F9000
DZOS_SOAK_TIME TIME=0
START_PRINT TEMP=65
G90
G1 X0 F9000
G1 Y20
G1 Z0.600 F600
G1 Y0 F9000
M400
G91
M83
M140 S65 ;set bed temp
M104 S235 ;set extruder temp
M190 S65 ;wait for bed temp
M109 S235;wait for extruder temp
G1 E25 F300
G4 P1000
G1 E-0.200 Z5 F600
M73 P3 R3
M73 P3 R3
G1 X88.000 F9000
G1 Z-5.000 F600
G1 X87.000 E20.88 F1800
M73 P4 R3
M73 P4 R3
G1 X87.000 E13.92 F1800
M73 P5 R3
M73 P5 R3
G1 Y1 E0.16 F1800
M73 P7 R2
M73 P7 R2
G1 X-87.000 E13.92 F1800
G1 X-87.000 E20.88 F1800
M73 P8 R2
M73 P8 R2
G1 Y1 E0.24 F1800
M73 P10 R2
M73 P10 R2
G1 X87.000 E20.88 F1800
G1 X87.000 E13.92 F1800
M73 P11 R2
M73 P11 R2
G1 E-0.200 Z1 F600
M73 P13 R2
M400
G90
G21
M83 ; use relative distances for extrusion
; filament start gcode
M106 S0
;LAYER_CHANGE
;Z:0.25
;HEIGHT:0.25
TIMELAPSE_TAKE_FRAME
G92 E0
M73 P13 R2
G1 E-.5 F1800
;_SET_FAN_SPEED_CHANGING_LAYER
SET_VELOCITY_LIMIT ACCEL=3000 ACCEL_TO_DECEL=1500
G1 Z.65 F36000
G1 X133.801 Y133.812
G1 Z.65
G1 Z.25
G1 E.5 F1800
;TYPE:Skirt
;WIDTH:0.5
G1 F3000
G1 X135.491 Y132.679 E.09249
G1 X137.5 Y132.277 E.09315
G1 X212.5 Y132.277 E3.40986
G1 X214.495 Y132.673 E.09249
M73 P14 R2
M73 P14 R2
G1 X216.188 Y133.801 E.09249
G1 X217.321 Y135.491 E.09249
G1 X217.723 Y137.5 E.09315
G1 X217.723 Y212.5 E3.40986
G1 X217.327 Y214.495 E.09249
M73 P15 R2
M73 P15 R2
G1 X216.199 Y216.188 E.09249
G1 X214.509 Y217.321 E.09249
G1 X212.5 Y217.723 E.09315
G1 X137.5 Y217.723 E3.40986
G1 X135.505 Y217.327 E.09249
M73 P16 R2
M73 P16 R2
G1 X133.812 Y216.199 E.09249
G1 X132.679 Y214.509 E.09249
G1 X132.277 Y212.5 E.09315
G1 X132.277 Y137.5 E3.40986
G1 X132.673 Y135.505 E.09249
G1 X133.779 Y133.845 E.09067
; printing object Cube id:0 copy 0
;WIPE_START
G1 X135.432 Y132.719 E-.5
;WIPE_END
EXCLUDE_OBJECT_START NAME=Cube_id_0_copy_0
G1 Z.65 F36000
G1 X212.15 Y212.15 Z.65
M73 P17 R2
M73 P17 R2
G1 Z.25
G1 E.5 F1800
;TYPE:Outer wall
G1 X137.85 Y212.15 E3.37803
G1 X137.85 Y137.85 E3.37803
M73 P18 R2
M73 P18 R2
G1 X212.15 Y137.85 E3.37803
M73 P19 R2
M73 P19 R2
G1 X212.15 Y212.13 E3.37712
M73 P21 R2
M73 P21 R2
G1 X211.704 Y211.704 F36000
M73 P22 R2
;TYPE:Inner wall
M73 P22 R2
G1 F1800
G1 X138.296 Y211.704 E3.33745
G1 X138.296 Y138.296 E3.33745
M73 P23 R2
M73 P23 R2
G1 X211.704 Y138.296 E3.33745
M73 P24 R2
M73 P24 R2
G1 X211.704 Y211.684 E3.33654
M73 P26 R2
;WIPE_START
M73 P26 R2
G1 X209.704 Y211.684 E-.5
M73 P27 R2
;WIPE_END
M73 P27 R2
G1 Z.65 F36000
G1 X211.57 Y139.336 Z.65
G1 Z.25
G1 E.5 F1800
;TYPE:Bottom surface
;WIDTH:0.501693
G1 F5400
G1 X210.865 Y138.631 E.0455
G1 X210.231 Y138.631 E.02892
G1 X211.369 Y139.769 E.07343
G1 X211.369 Y140.403 E.02892
G1 X209.597 Y138.631 E.11433
G1 X208.964 Y138.631 E.02892
G1 X211.369 Y141.036 E.15522
G1 X211.369 Y141.67 E.02892
G1 X208.33 Y138.631 E.19612
G1 X207.697 Y138.631 E.02892
G1 X211.369 Y142.303 E.23701
G1 X211.369 Y142.937 E.02892
G1 X207.063 Y138.631 E.27791
G1 X206.429 Y138.631 E.02892
M73 P28 R2
M73 P28 R2
G1 X211.369 Y143.571 E.3188
G1 X211.369 Y144.204 E.02892
G1 X205.796 Y138.631 E.3597
G1 X205.162 Y138.631 E.02892
G1 X211.369 Y144.838 E.40059
G1 X211.369 Y145.472 E.02892
G1 X204.528 Y138.631 E.44149
G1 X203.895 Y138.631 E.02892
G1 X211.369 Y146.105 E.48238
G1 X211.369 Y146.739 E.02892
G1 X203.261 Y138.631 E.52328
G1 X202.628 Y138.631 E.02892
G1 X211.369 Y147.372 E.56417
G1 X211.369 Y148.006 E.02892
G1 X201.994 Y138.631 E.60507
G1 X201.36 Y138.631 E.02892
G1 X211.369 Y148.64 E.64596
G1 X211.369 Y149.273 E.02892
G1 X200.727 Y138.631 E.68686
G1 X200.093 Y138.631 E.02892
G1 X211.369 Y149.907 E.72775
G1 X211.369 Y150.541 E.02892
G1 X199.459 Y138.631 E.76865
G1 X198.826 Y138.631 E.02892
M73 P29 R2
M73 P29 R2
G1 X211.369 Y151.174 E.80954
G1 X211.369 Y151.808 E.02892
G1 X198.192 Y138.631 E.85044
G1 X197.559 Y138.631 E.02892
G1 X211.369 Y152.441 E.89133
G1 X211.369 Y153.075 E.02892
G1 X196.925 Y138.631 E.93223
G1 X196.291 Y138.631 E.02892
G1 X211.369 Y153.709 E.97312
G1 X211.369 Y154.342 E.02892
G1 X195.658 Y138.631 E1.01402
G1 X195.024 Y138.631 E.02892
G1 X211.369 Y154.976 E1.05491
G1 X211.369 Y155.61 E.02892
G1 X194.39 Y138.631 E1.09581
M73 P30 R2
M73 P30 R2
G1 X193.757 Y138.631 E.02892
G1 X211.369 Y156.243 E1.1367
G1 X211.369 Y156.877 E.02892
G1 X193.123 Y138.631 E1.1776
G1 X192.49 Y138.631 E.02892
G1 X211.369 Y157.51 E1.21849
G1 X211.369 Y158.144 E.02892
G1 X191.856 Y138.631 E1.25939
G1 X191.222 Y138.631 E.02892
G1 X211.369 Y158.778 E1.30028
G1 X211.369 Y159.411 E.02892
M73 P31 R2
M73 P31 R2
G1 X190.589 Y138.631 E1.34118
G1 X189.955 Y138.631 E.02892
G1 X211.369 Y160.045 E1.38207
G1 X211.369 Y160.679 E.02892
G1 X189.321 Y138.631 E1.42297
G1 X188.688 Y138.631 E.02892
G1 X211.369 Y161.312 E1.46386
G1 X211.369 Y161.946 E.02892
G1 X188.054 Y138.631 E1.50476
G1 X187.42 Y138.631 E.02892
G1 X211.369 Y162.58 E1.54565
M73 P32 R2
M73 P32 R2
G1 X211.369 Y163.213 E.02892
G1 X186.787 Y138.631 E1.58655
G1 X186.153 Y138.631 E.02892
G1 X211.369 Y163.847 E1.62744
G1 X211.369 Y164.48 E.02892
G1 X185.52 Y138.631 E1.66834
G1 X184.886 Y138.631 E.02892
G1 X211.369 Y165.114 E1.70923
G1 X211.369 Y165.748 E.02892
M73 P33 R2
M73 P33 R2
G1 X184.252 Y138.631 E1.75013
G1 X183.619 Y138.631 E.02892
G1 X211.369 Y166.381 E1.79102
G1 X211.369 Y167.015 E.02892
G1 X182.985 Y138.631 E1.83192
G1 X182.351 Y138.631 E.02892
G1 X211.369 Y167.649 E1.87281
G1 X211.369 Y168.282 E.02892
M73 P34 R2
M73 P34 R2
G1 X181.718 Y138.631 E1.91371
G1 X181.084 Y138.631 E.02892
G1 X211.369 Y168.916 E1.9546
G1 X211.369 Y169.549 E.02892
G1 X180.451 Y138.631 E1.9955
G1 X179.817 Y138.631 E.02892
G1 X211.369 Y170.183 E2.03639
G1 X211.369 Y170.817 E.02892
M73 P35 R2
M73 P35 R2
G1 X179.183 Y138.631 E2.07729
G1 X178.55 Y138.631 E.02892
G1 X211.369 Y171.45 E2.11818
G1 X211.369 Y172.084 E.02892
G1 X177.916 Y138.631 E2.15908
G1 X177.282 Y138.631 E.02892
M73 P36 R2
M73 P36 R2
G1 X211.369 Y172.718 E2.19997
G1 X211.369 Y173.351 E.02892
G1 X176.649 Y138.631 E2.24087
G1 X176.015 Y138.631 E.02892
G1 X211.369 Y173.985 E2.28176
G1 X211.369 Y174.618 E.02892
G1 X175.382 Y138.631 E2.32266
G1 X174.748 Y138.631 E.02892
M73 P37 R2
M73 P37 R2
G1 X211.369 Y175.252 E2.36355
G1 X211.369 Y175.886 E.02892
G1 X174.114 Y138.631 E2.40445
G1 X173.481 Y138.631 E.02892
M73 P37 R1
M73 P37 R1
G1 X211.369 Y176.519 E2.44534
G1 X211.369 Y177.153 E.02892
M73 P38 R1
M73 P38 R1
G1 X172.847 Y138.631 E2.48624
G1 X172.213 Y138.631 E.02892
G1 X211.369 Y177.787 E2.52713
G1 X211.369 Y178.42 E.02892
G1 X171.58 Y138.631 E2.56803
G1 X170.946 Y138.631 E.02892
M73 P39 R1
M73 P39 R1
G1 X211.369 Y179.054 E2.60892
G1 X211.369 Y179.687 E.02892
G1 X170.313 Y138.631 E2.64981
G1 X169.679 Y138.631 E.02892
G1 X211.369 Y180.321 E2.69071
G1 X211.369 Y180.955 E.02892
M73 P40 R1
M73 P40 R1
G1 X169.045 Y138.631 E2.7316
G1 X168.412 Y138.631 E.02892
G1 X211.369 Y181.588 E2.7725
G1 X211.369 Y182.222 E.02892
M73 P41 R1
M73 P41 R1
G1 X167.778 Y138.631 E2.81339
G1 X167.144 Y138.631 E.02892
G1 X211.369 Y182.856 E2.85429
G1 X211.369 Y183.489 E.02892
G1 X166.511 Y138.631 E2.89518
G1 X165.877 Y138.631 E.02892
M73 P42 R1
M73 P42 R1
G1 X211.369 Y184.123 E2.93608
G1 X211.369 Y184.757 E.02892
G1 X165.243 Y138.631 E2.97697
G1 X164.61 Y138.631 E.02892
G1 X211.369 Y185.39 E3.01787
G1 X211.369 Y186.024 E.02892
M73 P43 R1
M73 P43 R1
G1 X163.976 Y138.631 E3.05876
G1 X163.343 Y138.631 E.02892
G1 X211.369 Y186.657 E3.09966
G1 X211.369 Y187.291 E.02892
M73 P44 R1
M73 P44 R1
G1 X162.709 Y138.631 E3.14055
G1 X162.075 Y138.631 E.02892
G1 X211.369 Y187.925 E3.18145
G1 X211.369 Y188.558 E.02892
G1 X161.442 Y138.631 E3.22234
G1 X160.808 Y138.631 E.02892
M73 P45 R1
M73 P45 R1
G1 X211.369 Y189.192 E3.26324
G1 X211.369 Y189.826 E.02892
G1 X160.174 Y138.631 E3.30413
G1 X159.541 Y138.631 E.02892
M73 P46 R1
M73 P46 R1
G1 X211.369 Y190.459 E3.34503
G1 X211.369 Y191.093 E.02892
G1 X158.907 Y138.631 E3.38592
G1 X158.274 Y138.631 E.02892
M73 P47 R1
M73 P47 R1
G1 X211.369 Y191.726 E3.42682
G1 X211.369 Y192.36 E.02892
G1 X157.64 Y138.631 E3.46771
G1 X157.006 Y138.631 E.02892
M73 P48 R1
M73 P48 R1
G1 X211.369 Y192.994 E3.50861
G1 X211.369 Y193.627 E.02892
G1 X156.373 Y138.631 E3.5495
G1 X155.739 Y138.631 E.02892
G1 X211.369 Y194.261 E3.5904
M73 P49 R1
M73 P49 R1
G1 X211.369 Y194.895 E.02892
G1 X155.105 Y138.631 E3.63129
G1 X154.472 Y138.631 E.02892
G1 X211.369 Y195.528 E3.67219
G1 X211.369 Y196.162 E.02892
M73 P50 R1
M73 P50 R1
G1 X153.838 Y138.631 E3.71308
G1 X153.205 Y138.631 E.02892
G1 X211.369 Y196.795 E3.75398
G1 X211.369 Y197.429 E.02892
M73 P51 R1
M73 P51 R1
G1 X152.571 Y138.631 E3.79487
G1 X151.937 Y138.631 E.02892
G1 X211.369 Y198.063 E3.83577
G1 X211.369 Y198.696 E.02892
M73 P52 R1
M73 P52 R1
G1 X151.304 Y138.631 E3.87666
G1 X150.67 Y138.631 E.02892
G1 X211.369 Y199.33 E3.91756
G1 X211.369 Y199.964 E.02892
M73 P53 R1
M73 P53 R1
G1 X150.036 Y138.631 E3.95845
G1 X149.403 Y138.631 E.02892
G1 X211.369 Y200.597 E3.99935
G1 X211.369 Y201.231 E.02892
M73 P54 R1
M73 P54 R1
G1 X148.769 Y138.631 E4.04024
G1 X148.136 Y138.631 E.02892
G1 X211.369 Y201.864 E4.08114
M73 P55 R1
M73 P55 R1
G1 X211.369 Y202.498 E.02892
G1 X147.502 Y138.631 E4.12203
G1 X146.868 Y138.631 E.02892
M73 P56 R1
M73 P56 R1
G1 X211.369 Y203.132 E4.16293
G1 X211.369 Y203.765 E.02892
G1 X146.235 Y138.631 E4.20382
G1 X145.601 Y138.631 E.02892
M73 P57 R1
M73 P57 R1
G1 X211.369 Y204.399 E4.24472
G1 X211.369 Y205.033 E.02892
G1 X144.967 Y138.631 E4.28561
G1 X144.334 Y138.631 E.02892
M73 P58 R1
M73 P58 R1
G1 X211.369 Y205.666 E4.32651
G1 X211.369 Y206.3 E.02892
G1 X143.7 Y138.631 E4.3674
G1 X143.066 Y138.631 E.02892
M73 P59 R1
M73 P59 R1
G1 X211.369 Y206.934 E4.4083
G1 X211.369 Y207.567 E.02892
G1 X142.433 Y138.631 E4.44919
M73 P60 R1
M73 P60 R1
G1 X141.799 Y138.631 E.02892
G1 X211.369 Y208.201 E4.49009
G1 X211.369 Y208.834 E.02892
M73 P61 R1
M73 P61 R1
G1 X141.166 Y138.631 E4.53098
G1 X140.532 Y138.631 E.02892
G1 X211.369 Y209.468 E4.57188
G1 X211.369 Y210.102 E.02892
M73 P62 R1
M73 P62 R1
G1 X139.898 Y138.631 E4.61277
G1 X139.265 Y138.631 E.02892
G1 X211.369 Y210.735 E4.65367
G1 X211.369 Y211.369 E.02892
M73 P63 R1
M73 P63 R1
G1 X138.631 Y138.631 E4.69456
G1 X138.631 Y139.265 E.02892
M73 P64 R1
M73 P64 R1
G1 X210.735 Y211.369 E4.65366
G1 X210.102 Y211.369 E.02892
G1 X138.631 Y139.898 E4.61277
G1 X138.631 Y140.532 E.02892
M73 P65 R1
M73 P65 R1
G1 X209.468 Y211.369 E4.57187
G1 X208.834 Y211.369 E.02892
G1 X138.631 Y141.166 E4.53098
G1 X138.631 Y141.799 E.02892
M73 P66 R1
M73 P66 R1
G1 X208.201 Y211.369 E4.49008
G1 X207.567 Y211.369 E.02892
M73 P67 R1
M73 P67 R1
G1 X138.631 Y142.433 E4.44919
G1 X138.631 Y143.067 E.02892
G1 X206.933 Y211.369 E4.40829
G1 X206.3 Y211.369 E.02892
M73 P68 R1
M73 P68 R1
G1 X138.631 Y143.7 E4.3674
G1 X138.631 Y144.334 E.02892
G1 X205.666 Y211.369 E4.3265
G1 X205.033 Y211.369 E.02892
M73 P69 R0
M73 P69 R0
G1 X138.631 Y144.967 E4.28561
G1 X138.631 Y145.601 E.02892
M73 P70 R0
M73 P70 R0
G1 X204.399 Y211.369 E4.24471
G1 X203.765 Y211.369 E.02892
G1 X138.631 Y146.235 E4.20382
G1 X138.631 Y146.868 E.02892
M73 P71 R0
M73 P71 R0
G1 X203.132 Y211.369 E4.16292
G1 X202.498 Y211.369 E.02892
G1 X138.631 Y147.502 E4.12203
G1 X138.631 Y148.136 E.02892
M73 P72 R0
M73 P72 R0
G1 X201.864 Y211.369 E4.08113
G1 X201.231 Y211.369 E.02892
G1 X138.631 Y148.769 E4.04024
G1 X138.631 Y149.403 E.02892
M73 P73 R0
M73 P73 R0
G1 X200.597 Y211.369 E3.99934
G1 X199.964 Y211.369 E.02892
G1 X138.631 Y150.036 E3.95845
G1 X138.631 Y150.67 E.02892
M73 P74 R0
M73 P74 R0
G1 X199.33 Y211.369 E3.91755
G1 X198.696 Y211.369 E.02892
G1 X138.631 Y151.304 E3.87666
G1 X138.631 Y151.937 E.02892
M73 P75 R0
M73 P75 R0
G1 X198.063 Y211.369 E3.83576
G1 X197.429 Y211.369 E.02892
G1 X138.631 Y152.571 E3.79487
G1 X138.631 Y153.205 E.02892
M73 P76 R0
M73 P76 R0
G1 X196.795 Y211.369 E3.75397
G1 X196.162 Y211.369 E.02892
G1 X138.631 Y153.838 E3.71308
G1 X138.631 Y154.472 E.02892
M73 P77 R0
M73 P77 R0
G1 X195.528 Y211.369 E3.67218
G1 X194.895 Y211.369 E.02892
G1 X138.631 Y155.105 E3.63129
G1 X138.631 Y155.739 E.02892
M73 P78 R0
M73 P78 R0
G1 X194.261 Y211.369 E3.5904
G1 X193.627 Y211.369 E.02892
G1 X138.631 Y156.373 E3.5495
G1 X138.631 Y157.006 E.02892
M73 P79 R0
M73 P79 R0
G1 X192.994 Y211.369 E3.50861
G1 X192.36 Y211.369 E.02892
G1 X138.631 Y157.64 E3.46771
G1 X138.631 Y158.274 E.02892
M73 P80 R0
M73 P80 R0
G1 X191.726 Y211.369 E3.42682
G1 X191.093 Y211.369 E.02892
G1 X138.631 Y158.907 E3.38592
G1 X138.631 Y159.541 E.02892
M73 P81 R0
M73 P81 R0
G1 X190.459 Y211.369 E3.34503
G1 X189.825 Y211.369 E.02892
G1 X138.631 Y160.175 E3.30413
G1 X138.631 Y160.808 E.02892
G1 X189.192 Y211.369 E3.26324
G1 X188.558 Y211.369 E.02892
M73 P82 R0
M73 P82 R0
G1 X138.631 Y161.442 E3.22234
G1 X138.631 Y162.075 E.02892
G1 X187.925 Y211.369 E3.18145
G1 X187.291 Y211.369 E.02892
M73 P83 R0
M73 P83 R0
G1 X138.631 Y162.709 E3.14055
G1 X138.631 Y163.343 E.02892
G1 X186.657 Y211.369 E3.09966
G1 X186.024 Y211.369 E.02892
G1 X138.631 Y163.976 E3.05876
G1 X138.631 Y164.61 E.02892
M73 P84 R0
M73 P84 R0
G1 X185.39 Y211.369 E3.01787
G1 X184.756 Y211.369 E.02892
G1 X138.631 Y165.244 E2.97697
G1 X138.631 Y165.877 E.02892
M73 P85 R0
M73 P85 R0
G1 X184.123 Y211.369 E2.93608
G1 X183.489 Y211.369 E.02892
G1 X138.631 Y166.511 E2.89518
G1 X138.631 Y167.144 E.02892
G1 X182.856 Y211.369 E2.85429
G1 X182.222 Y211.369 E.02892
M73 P86 R0
M73 P86 R0
G1 X138.631 Y167.778 E2.81339
G1 X138.631 Y168.412 E.02892
G1 X181.588 Y211.369 E2.7725
G1 X180.955 Y211.369 E.02892
M73 P87 R0
M73 P87 R0
G1 X138.631 Y169.045 E2.7316
G1 X138.631 Y169.679 E.02892
G1 X180.321 Y211.369 E2.69071
G1 X179.687 Y211.369 E.02892
G1 X138.631 Y170.313 E2.64981
G1 X138.631 Y170.946 E.02892
M73 P88 R0
M73 P88 R0
G1 X179.054 Y211.369 E2.60892
G1 X178.42 Y211.369 E.02892
G1 X138.631 Y171.58 E2.56802
G1 X138.631 Y172.213 E.02892
G1 X177.787 Y211.369 E2.52713
G1 X177.153 Y211.369 E.02892
M73 P89 R0
M73 P89 R0
G1 X138.631 Y172.847 E2.48623
G1 X138.631 Y173.481 E.02892
G1 X176.519 Y211.369 E2.44534
G1 X175.886 Y211.369 E.02892
G1 X138.631 Y174.114 E2.40444
G1 X138.631 Y174.748 E.02892
M73 P90 R0
M73 P90 R0
G1 X175.252 Y211.369 E2.36355
G1 X174.618 Y211.369 E.02892
G1 X138.631 Y175.382 E2.32265
G1 X138.631 Y176.015 E.02892
G1 X173.985 Y211.369 E2.28176
G1 X173.351 Y211.369 E.02892
M73 P91 R0
M73 P91 R0
G1 X138.631 Y176.649 E2.24086
G1 X138.631 Y177.282 E.02892
G1 X172.718 Y211.369 E2.19997
G1 X172.084 Y211.369 E.02892
G1 X138.631 Y177.916 E2.15907
G1 X138.631 Y178.55 E.02892
G1 X171.45 Y211.369 E2.11818
G1 X170.817 Y211.369 E.02892
M73 P92 R0
M73 P92 R0
G1 X138.631 Y179.183 E2.07728
G1 X138.631 Y179.817 E.02892
G1 X170.183 Y211.369 E2.03639
G1 X169.549 Y211.369 E.02892
G1 X138.631 Y180.451 E1.99549
G1 X138.631 Y181.084 E.02892
M73 P93 R0
M73 P93 R0
G1 X168.916 Y211.369 E1.9546
G1 X168.282 Y211.369 E.02892
G1 X138.631 Y181.718 E1.9137
G1 X138.631 Y182.352 E.02892
G1 X167.649 Y211.369 E1.87281
G1 X167.015 Y211.369 E.02892
G1 X138.631 Y182.985 E1.83191
G1 X138.631 Y183.619 E.02892
M73 P94 R0
M73 P94 R0
G1 X166.381 Y211.369 E1.79102
G1 X165.748 Y211.369 E.02892
G1 X138.631 Y184.252 E1.75012
G1 X138.631 Y184.886 E.02892
G1 X165.114 Y211.369 E1.70923
G1 X164.48 Y211.369 E.02892
G1 X138.631 Y185.52 E1.66833
G1 X138.631 Y186.153 E.02892
M73 P95 R0
M73 P95 R0
G1 X163.847 Y211.369 E1.62744
G1 X163.213 Y211.369 E.02892
G1 X138.631 Y186.787 E1.58654
G1 X138.631 Y187.421 E.02892
