; HEADER_BLOCK_START
; generated by OrcaSlicer 2.2.0 on 2025-01-15 at 01:08:27
; total layer number: 1
; filament_density: 1.24
; filament_diameter: 1.75
; max_z_height: 0.25
; HEADER_BLOCK_END

; THUMBNAIL_BLOCK_START

;
; THUMBNAIL_BLOCK_END

; THUMBNAIL_BLOCK_START

;
; THUMBNAIL_BLOCK_END

; THUMBNAIL_BLOCK_START

;
; THUMBNAIL_BLOCK_END

; external perimeters extrusion width = 0.40mm
; perimeters extrusion width = 0.42mm
; infill extrusion width = 0.45mm
; solid infill extrusion width = 0.45mm
; top infill extrusion width = 0.42mm
; first layer extrusion width = 0.50mm

; EXECUTABLE_BLOCK_START
EXCLUDE_OBJECT_DEFINE NAME=Cube_id_0_copy_0 CENTER=175,175 POLYGON=[[25,25],[325,25],[325,325],[25,325],[25,25]]
M73 P0 R39
;TYPE:Custom
G28
G90
G1 X0 F9000
G1 Y20
G1 Z0.600 F600
G1 Y0 F9000
DZOS_SOAK_TIME TIME=1500
START_PRINT TEMP=65
G90
G1 X0 F9000
G1 Y20
G1 Z0.600 F600
G1 Y0 F9000
M400
G91
M83
M140 S65 ;set bed temp
M104 S235 ;set extruder temp
M190 S65 ;wait for bed temp
M109 S235;wait for extruder temp
G1 E25 F300
G4 P1000
G1 E-0.200 Z5 F600
G1 X88.000 F9000
G1 Z-5.000 F600
G1 X87.000 E20.88 F1800
G1 X87.000 E13.92 F1800
G1 Y1 E0.16 F1800
G1 X-87.000 E13.92 F1800
G1 X-87.000 E20.88 F1800
G1 Y1 E0.24 F1800
G1 X87.000 E20.88 F1800
G1 X87.000 E13.92 F1800
G1 E-0.200 Z1 F600
M73 P1 R39
M400
G90
G21
M83 ; use relative distances for extrusion
; filament start gcode
M106 S0
;LAYER_CHANGE
;Z:0.25
;HEIGHT:0.25
TIMELAPSE_TAKE_FRAME
G92 E0
M73 P1 R39
G1 E-.5 F1800
;_SET_FAN_SPEED_CHANGING_LAYER
SET_VELOCITY_LIMIT ACCEL=3000 ACCEL_TO_DECEL=1500
G1 Z.65 F36000
G1 X21.301 Y21.312
G1 Z.65
G1 Z.25
G1 E.5 F1800
;TYPE:Skirt
;WIDTH:0.5
G1 F3000
G1 X22.991 Y20.179 E.09249
G1 X25 Y19.777 E.09315
G1 X325 Y19.777 E13.63944
G1 X326.995 Y20.173 E.09249
M73 P1 R38
M73 P1 R38
G1 X328.688 Y21.301 E.09249
G1 X329.821 Y22.991 E.09249
G1 X330.223 Y25 E.09315
G1 X330.223 Y325 E13.63944
G1 X329.827 Y326.995 E.09249
G1 X328.699 Y328.688 E.09249
G1 X327.009 Y329.821 E.09249
G1 X325 Y330.223 E.09315
G1 X25 Y330.223 E13.63944
G1 X23.005 Y329.827 E.09249
G1 X21.312 Y328.699 E.09249
G1 X20.179 Y327.009 E.09249
G1 X19.777 Y325 E.09315
G1 X19.777 Y25 E13.63944
G1 X20.173 Y23.005 E.09249
M73 P2 R38
M73 P2 R38
G1 X21.279 Y21.345 E.09067
; printing object Cube id:0 copy 0
;WIPE_START
G1 X22.932 Y20.219 E-.5
;WIPE_END
EXCLUDE_OBJECT_START NAME=Cube_id_0_copy_0
G1 Z.65 F36000
G1 X324.65 Y324.65 Z.65
G1 Z.25
G1 E.5 F1800
;TYPE:Outer wall
G1 X25.35 Y324.65 E13.60761
G1 X25.35 Y25.35 E13.60761
G1 X324.65 Y25.35 E13.60761
M73 P3 R38
M73 P3 R38
G1 X324.65 Y324.63 E13.6067
G1 X324.204 Y324.204 F36000
M73 P3 R37
;TYPE:Inner wall
M73 P3 R37
G1 F1800
G1 X25.796 Y324.204 E13.56703
G1 X25.796 Y25.796 E13.56703
M73 P4 R37
M73 P4 R37
G1 X324.204 Y25.796 E13.56703
G1 X324.204 Y324.184 E13.56612
M73 P5 R37
;WIPE_START
M73 P5 R37
G1 X322.204 Y324.184 E-.5
;WIPE_END
G1 Z.65 F36000
G1 X324.07 Y26.833 Z.65
G1 Z.25
G1 E.5 F1800
;TYPE:Bottom surface
;WIDTH:0.500361
G1 F5400
G1 X323.368 Y26.131 E.04519
G1 X322.736 Y26.131 E.02875
G1 X323.869 Y27.264 E.07291
G1 X323.869 Y27.896 E.02875
G1 X322.104 Y26.131 E.11356
G1 X321.472 Y26.131 E.02875
G1 X323.869 Y28.528 E.15422
G1 X323.869 Y29.159 E.02875
G1 X320.841 Y26.131 E.19487
G1 X320.209 Y26.131 E.02875
G1 X323.869 Y29.791 E.23552
G1 X323.869 Y30.423 E.02875
G1 X319.577 Y26.131 E.27617
G1 X318.945 Y26.131 E.02875
G1 X323.869 Y31.055 E.31683
G1 X323.869 Y31.686 E.02875
G1 X318.314 Y26.131 E.35748
G1 X317.682 Y26.131 E.02875
G1 X323.869 Y32.318 E.39813
G1 X323.869 Y32.95 E.02875
G1 X317.05 Y26.131 E.43878
G1 X316.418 Y26.131 E.02875
G1 X323.869 Y33.582 E.47943
G1 X323.869 Y34.213 E.02875
G1 X315.787 Y26.131 E.52009
G1 X315.155 Y26.131 E.02875
G1 X323.869 Y34.845 E.56074
G1 X323.869 Y35.477 E.02875
G1 X314.523 Y26.131 E.60139
G1 X313.891 Y26.131 E.02875
G1 X323.869 Y36.109 E.64204
G1 X323.869 Y36.74 E.02875
G1 X313.26 Y26.131 E.68269
G1 X312.628 Y26.131 E.02875
G1 X323.869 Y37.372 E.72335
G1 X323.869 Y38.004 E.02875
G1 X311.996 Y26.131 E.764
G1 X311.364 Y26.131 E.02875
G1 X323.869 Y38.636 E.80465
G1 X323.869 Y39.267 E.02875
G1 X310.733 Y26.131 E.8453
G1 X310.101 Y26.131 E.02875
G1 X323.869 Y39.899 E.88596
G1 X323.869 Y40.531 E.02875
G1 X309.469 Y26.131 E.92661
G1 X308.837 Y26.131 E.02875
G1 X323.869 Y41.163 E.96726
G1 X323.869 Y41.794 E.02875
G1 X308.206 Y26.131 E1.00791
G1 X307.574 Y26.131 E.02875
G1 X323.869 Y42.426 E1.04856
G1 X323.869 Y43.058 E.02875
G1 X306.942 Y26.131 E1.08922
G1 X306.31 Y26.131 E.02875
G1 X323.869 Y43.69 E1.12987
G1 X323.869 Y44.321 E.02875
G1 X305.679 Y26.131 E1.17052
G1 X305.047 Y26.131 E.02875
G1 X323.869 Y44.953 E1.21117
G1 X323.869 Y45.585 E.02875
G1 X304.415 Y26.131 E1.25182
G1 X303.783 Y26.131 E.02875
G1 X323.869 Y46.217 E1.29248
G1 X323.869 Y46.848 E.02875
G1 X303.152 Y26.131 E1.33313
G1 X302.52 Y26.131 E.02875
G1 X323.869 Y47.48 E1.37378
G1 X323.869 Y48.112 E.02875
G1 X301.888 Y26.131 E1.41443
G1 X301.256 Y26.131 E.02875
G1 X323.869 Y48.744 E1.45509
G1 X323.869 Y49.375 E.02875
G1 X300.625 Y26.131 E1.49574
G1 X299.993 Y26.131 E.02875
G1 X323.869 Y50.007 E1.53639
G1 X323.869 Y50.639 E.02875
G1 X299.361 Y26.131 E1.57704
G1 X298.73 Y26.131 E.02875
G1 X323.869 Y51.27 E1.61769
G1 X323.869 Y51.902 E.02875
G1 X298.098 Y26.131 E1.65835
G1 X297.466 Y26.131 E.02875
M73 P6 R37
M73 P6 R37
G1 X323.869 Y52.534 E1.699
G1 X323.869 Y53.166 E.02875
G1 X296.834 Y26.131 E1.73965
G1 X296.203 Y26.131 E.02875
G1 X323.869 Y53.797 E1.7803
G1 X323.869 Y54.429 E.02875
G1 X295.571 Y26.131 E1.82095
G1 X294.939 Y26.131 E.02875
G1 X323.869 Y55.061 E1.86161
G1 X323.869 Y55.693 E.02875
G1 X294.307 Y26.131 E1.90226
G1 X293.676 Y26.131 E.02875
G1 X323.869 Y56.324 E1.94291
G1 X323.869 Y56.956 E.02875
G1 X293.044 Y26.131 E1.98356
G1 X292.412 Y26.131 E.02875
G1 X323.869 Y57.588 E2.02422
G1 X323.869 Y58.22 E.02875
G1 X291.78 Y26.131 E2.06487
G1 X291.149 Y26.131 E.02875
G1 X323.869 Y58.851 E2.10552
G1 X323.869 Y59.483 E.02875
G1 X290.517 Y26.131 E2.14617
G1 X289.885 Y26.131 E.02875
G1 X323.869 Y60.115 E2.18682
G1 X323.869 Y60.747 E.02875
G1 X289.253 Y26.131 E2.22748
G1 X288.622 Y26.131 E.02875
M73 P6 R36
M73 P6 R36
G1 X323.869 Y61.378 E2.26813
G1 X323.869 Y62.01 E.02875
G1 X287.99 Y26.131 E2.30878
G1 X287.358 Y26.131 E.02875
G1 X323.869 Y62.642 E2.34943
G1 X323.869 Y63.274 E.02875
G1 X286.726 Y26.131 E2.39008
G1 X286.095 Y26.131 E.02875
G1 X323.869 Y63.905 E2.43074
G1 X323.869 Y64.537 E.02875
G1 X285.463 Y26.131 E2.47139
G1 X284.831 Y26.131 E.02875
G1 X323.869 Y65.169 E2.51204
G1 X323.869 Y65.801 E.02875
G1 X284.199 Y26.131 E2.55269
G1 X283.568 Y26.131 E.02875
G1 X323.869 Y66.432 E2.59335
G1 X323.869 Y67.064 E.02875
G1 X282.936 Y26.131 E2.634
G1 X282.304 Y26.131 E.02875
G1 X323.869 Y67.696 E2.67465
G1 X323.869 Y68.328 E.02875
G1 X281.672 Y26.131 E2.7153
G1 X281.041 Y26.131 E.02875
G1 X323.869 Y68.959 E2.75595
G1 X323.869 Y69.591 E.02875
G1 X280.409 Y26.131 E2.79661
G1 X279.777 Y26.131 E.02875
G1 X323.869 Y70.223 E2.83726
G1 X323.869 Y70.855 E.02875
G1 X279.145 Y26.131 E2.87791
G1 X278.514 Y26.131 E.02875
G1 X323.869 Y71.486 E2.91856
G1 X323.869 Y72.118 E.02875
G1 X277.882 Y26.131 E2.95921
G1 X277.25 Y26.131 E.02875
G1 X323.869 Y72.75 E2.99987
G1 X323.869 Y73.382 E.02875
G1 X276.618 Y26.131 E3.04052
G1 X275.987 Y26.131 E.02875
G1 X323.869 Y74.013 E3.08117
G1 X323.869 Y74.645 E.02875
G1 X275.355 Y26.131 E3.12182
G1 X274.723 Y26.131 E.02875
G1 X323.869 Y75.277 E3.16248
G1 X323.869 Y75.909 E.02875
G1 X274.091 Y26.131 E3.20313
G1 X273.46 Y26.131 E.02875
M73 P7 R36
M73 P7 R36
G1 X323.869 Y76.54 E3.24378
G1 X323.869 Y77.172 E.02875
G1 X272.828 Y26.131 E3.28443
G1 X272.196 Y26.131 E.02875
G1 X323.869 Y77.804 E3.32508
G1 X323.869 Y78.436 E.02875
G1 X271.564 Y26.131 E3.36574
G1 X270.933 Y26.131 E.02875
G1 X323.869 Y79.067 E3.40639
G1 X323.869 Y79.699 E.02875
G1 X270.301 Y26.131 E3.44704
G1 X269.669 Y26.131 E.02875
G1 X323.869 Y80.331 E3.48769
G1 X323.869 Y80.962 E.02875
G1 X269.038 Y26.131 E3.52834
G1 X268.406 Y26.131 E.02875
G1 X323.869 Y81.594 E3.569
G1 X323.869 Y82.226 E.02875
G1 X267.774 Y26.131 E3.60965
G1 X267.142 Y26.131 E.02875
G1 X323.869 Y82.858 E3.6503
G1 X323.869 Y83.489 E.02875
G1 X266.511 Y26.131 E3.69095
G1 X265.879 Y26.131 E.02875
G1 X323.869 Y84.121 E3.73161
G1 X323.869 Y84.753 E.02875
G1 X265.247 Y26.131 E3.77226
G1 X264.615 Y26.131 E.02875
G1 X323.869 Y85.385 E3.81291
G1 X323.869 Y86.016 E.02875
G1 X263.984 Y26.131 E3.85356
G1 X263.352 Y26.131 E.02875
G1 X323.869 Y86.648 E3.89421
G1 X323.869 Y87.28 E.02875
G1 X262.72 Y26.131 E3.93487
G1 X262.088 Y26.131 E.02875
G1 X323.869 Y87.912 E3.97552
G1 X323.869 Y88.543 E.02875
G1 X261.457 Y26.131 E4.01617
G1 X260.825 Y26.131 E.02875
G1 X323.869 Y89.175 E4.05682
G1 X323.869 Y89.807 E.02875
G1 X260.193 Y26.131 E4.09747
G1 X259.561 Y26.131 E.02875
G1 X323.869 Y90.439 E4.13813
G1 X323.869 Y91.07 E.02875
G1 X258.93 Y26.131 E4.17878
G1 X258.298 Y26.131 E.02875
G1 X323.869 Y91.702 E4.21943
G1 X323.869 Y92.334 E.02875
M73 P8 R36
M73 P8 R36
G1 X257.666 Y26.131 E4.26008
G1 X257.034 Y26.131 E.02875
G1 X323.869 Y92.966 E4.30073
G1 X323.869 Y93.597 E.02875
G1 X256.403 Y26.131 E4.34139
G1 X255.771 Y26.131 E.02875
G1 X323.869 Y94.229 E4.38204
G1 X323.869 Y94.861 E.02875
G1 X255.139 Y26.131 E4.42269
G1 X254.507 Y26.131 E.02875
G1 X323.869 Y95.493 E4.46334
G1 X323.869 Y96.124 E.02875
G1 X253.876 Y26.131 E4.504
G1 X253.244 Y26.131 E.02875
G1 X323.869 Y96.756 E4.54465
G1 X323.869 Y97.388 E.02875
G1 X252.612 Y26.131 E4.5853
G1 X251.98 Y26.131 E.02875
G1 X323.869 Y98.02 E4.62595
G1 X323.869 Y98.651 E.02875
G1 X251.349 Y26.131 E4.6666
G1 X250.717 Y26.131 E.02875
G1 X323.869 Y99.283 E4.70726
G1 X323.869 Y99.915 E.02875
G1 X250.085 Y26.131 E4.74791
G1 X249.453 Y26.131 E.02875
G1 X323.869 Y100.547 E4.78856
G1 X323.869 Y101.178 E.02875
G1 X248.822 Y26.131 E4.82921
G1 X248.19 Y26.131 E.02875
G1 X323.869 Y101.81 E4.86986
G1 X323.869 Y102.442 E.02875
G1 X247.558 Y26.131 E4.91052
G1 X246.926 Y26.131 E.02875
M73 P8 R35
M73 P8 R35
G1 X323.869 Y103.074 E4.95117
G1 X323.869 Y103.705 E.02875
G1 X246.295 Y26.131 E4.99182
G1 X245.663 Y26.131 E.02875
G1 X323.869 Y104.337 E5.03247
G1 X323.869 Y104.969 E.02875
G1 X245.031 Y26.131 E5.07313
G1 X244.399 Y26.131 E.02875
M73 P9 R35
M73 P9 R35
G1 X323.869 Y105.601 E5.11378
G1 X323.869 Y106.232 E.02875
G1 X243.768 Y26.131 E5.15443
G1 X243.136 Y26.131 E.02875
G1 X323.869 Y106.864 E5.19508
G1 X323.869 Y107.496 E.02875
G1 X242.504 Y26.131 E5.23573
G1 X241.872 Y26.131 E.02875
G1 X323.869 Y108.128 E5.27639
G1 X323.869 Y108.759 E.02875
G1 X241.241 Y26.131 E5.31704
G1 X240.609 Y26.131 E.02875
G1 X323.869 Y109.391 E5.35769
G1 X323.869 Y110.023 E.02875
G1 X239.977 Y26.131 E5.39834
G1 X239.346 Y26.131 E.02875
G1 X323.869 Y110.654 E5.43899
G1 X323.869 Y111.286 E.02875
G1 X238.714 Y26.131 E5.47965
G1 X238.082 Y26.131 E.02875
G1 X323.869 Y111.918 E5.5203
G1 X323.869 Y112.55 E.02875
G1 X237.45 Y26.131 E5.56095
G1 X236.819 Y26.131 E.02875
G1 X323.869 Y113.181 E5.6016
G1 X323.869 Y113.813 E.02875
G1 X236.187 Y26.131 E5.64226
G1 X235.555 Y26.131 E.02875
G1 X323.869 Y114.445 E5.68291
G1 X323.869 Y115.077 E.02875
G1 X234.923 Y26.131 E5.72356
G1 X234.292 Y26.131 E.02875
G1 X323.869 Y115.708 E5.76421
G1 X323.869 Y116.34 E.02875
M73 P10 R35
M73 P10 R35
G1 X233.66 Y26.131 E5.80486
G1 X233.028 Y26.131 E.02875
G1 X323.869 Y116.972 E5.84552
G1 X323.869 Y117.604 E.02875
G1 X232.396 Y26.131 E5.88617
G1 X231.765 Y26.131 E.02875
G1 X323.869 Y118.235 E5.92682
G1 X323.869 Y118.867 E.02875
G1 X231.133 Y26.131 E5.96747
G1 X230.501 Y26.131 E.02875
G1 X323.869 Y119.499 E6.00812
G1 X323.869 Y120.131 E.02875
G1 X229.869 Y26.131 E6.04878
G1 X229.238 Y26.131 E.02875
G1 X323.869 Y120.762 E6.08943
G1 X323.869 Y121.394 E.02875
G1 X228.606 Y26.131 E6.13008
G1 X227.974 Y26.131 E.02875
G1 X323.869 Y122.026 E6.17073
G1 X323.869 Y122.658 E.02875
G1 X227.342 Y26.131 E6.21139
G1 X226.711 Y26.131 E.02875
G1 X323.869 Y123.289 E6.25204
G1 X323.869 Y123.921 E.02875
G1 X226.079 Y26.131 E6.29269
G1 X225.447 Y26.131 E.02875
G1 X323.869 Y124.553 E6.33334
G1 X323.869 Y125.185 E.02875
G1 X224.815 Y26.131 E6.37399
G1 X224.184 Y26.131 E.02875
G1 X323.869 Y125.816 E6.41465
G1 X323.869 Y126.448 E.02875
M73 P11 R35
M73 P11 R35
G1 X223.552 Y26.131 E6.4553
G1 X222.92 Y26.131 E.02875
G1 X323.869 Y127.08 E6.49595
G1 X323.869 Y127.712 E.02875
G1 X222.288 Y26.131 E6.5366
G1 X221.657 Y26.131 E.02875
G1 X323.869 Y128.343 E6.57725
G1 X323.869 Y128.975 E.02875
G1 X221.025 Y26.131 E6.61791
G1 X220.393 Y26.131 E.02875
M73 P11 R34
M73 P11 R34
G1 X323.869 Y129.607 E6.65856
G1 X323.869 Y130.239 E.02875
G1 X219.761 Y26.131 E6.69921
G1 X219.13 Y26.131 E.02875
G1 X323.869 Y130.87 E6.73986
G1 X323.869 Y131.502 E.02875
G1 X218.498 Y26.131 E6.78052
G1 X217.866 Y26.131 E.02875
G1 X323.869 Y132.134 E6.82117
G1 X323.869 Y132.766 E.02875
G1 X217.234 Y26.131 E6.86182
G1 X216.603 Y26.131 E.02875
G1 X323.869 Y133.397 E6.90247
G1 X323.869 Y134.029 E.02875
G1 X215.971 Y26.131 E6.94312
G1 X215.339 Y26.131 E.02875
G1 X323.869 Y134.661 E6.98378
G1 X323.869 Y135.293 E.02875
M73 P12 R34
M73 P12 R34
G1 X214.707 Y26.131 E7.02443
G1 X214.076 Y26.131 E.02875
G1 X323.869 Y135.924 E7.06508
G1 X323.869 Y136.556 E.02875
G1 X213.444 Y26.131 E7.10573
G1 X212.812 Y26.131 E.02875
G1 X323.869 Y137.188 E7.14638
G1 X323.869 Y137.82 E.02875
G1 X212.18 Y26.131 E7.18704
G1 X211.549 Y26.131 E.02875
G1 X323.869 Y138.451 E7.22769
G1 X323.869 Y139.083 E.02875
G1 X210.917 Y26.131 E7.26834
G1 X210.285 Y26.131 E.02875
G1 X323.869 Y139.715 E7.30899
G1 X323.869 Y140.347 E.02875
G1 X209.653 Y26.131 E7.34965
G1 X209.022 Y26.131 E.02875
G1 X323.869 Y140.978 E7.3903
G1 X323.869 Y141.61 E.02875
G1 X208.39 Y26.131 E7.43095
G1 X207.758 Y26.131 E.02875
G1 X323.869 Y142.242 E7.4716
G1 X323.869 Y142.873 E.02875
G1 X207.127 Y26.131 E7.51225
G1 X206.495 Y26.131 E.02875
M73 P13 R34
M73 P13 R34
G1 X323.869 Y143.505 E7.55291
G1 X323.869 Y144.137 E.02875
G1 X205.863 Y26.131 E7.59356
G1 X205.231 Y26.131 E.02875
G1 X323.869 Y144.769 E7.63421
G1 X323.869 Y145.4 E.02875
G1 X204.6 Y26.131 E7.67486
G1 X203.968 Y26.131 E.02875
G1 X323.869 Y146.032 E7.71551
G1 X323.869 Y146.664 E.02875
G1 X203.336 Y26.131 E7.75617
G1 X202.704 Y26.131 E.02875
G1 X323.869 Y147.296 E7.79682
G1 X323.869 Y147.927 E.02875
G1 X202.073 Y26.131 E7.83747
G1 X201.441 Y26.131 E.02875
G1 X323.869 Y148.559 E7.87812
G1 X323.869 Y149.191 E.02875
G1 X200.809 Y26.131 E7.91878
G1 X200.177 Y26.131 E.02875
G1 X323.869 Y149.823 E7.95943
G1 X323.869 Y150.454 E.02875
M73 P13 R33
M73 P13 R33
G1 X199.546 Y26.131 E8.00008
G1 X198.914 Y26.131 E.02875
M73 P14 R33
M73 P14 R33
G1 X323.869 Y151.086 E8.04073
G1 X323.869 Y151.718 E.02875
G1 X198.282 Y26.131 E8.08138
G1 X197.65 Y26.131 E.02875
G1 X323.869 Y152.35 E8.12204
G1 X323.869 Y152.981 E.02875
G1 X197.019 Y26.131 E8.16269
G1 X196.387 Y26.131 E.02875
G1 X323.869 Y153.613 E8.20334
G1 X323.869 Y154.245 E.02875
G1 X195.755 Y26.131 E8.24399
G1 X195.123 Y26.131 E.02875
G1 X323.869 Y154.877 E8.28464
G1 X323.869 Y155.508 E.02875
G1 X194.492 Y26.131 E8.3253
G1 X193.86 Y26.131 E.02875
G1 X323.869 Y156.14 E8.36595
G1 X323.869 Y156.772 E.02875
G1 X193.228 Y26.131 E8.4066
G1 X192.596 Y26.131 E.02875
G1 X323.869 Y157.404 E8.44725
G1 X323.869 Y158.035 E.02875
G1 X191.965 Y26.131 E8.4879
G1 X191.333 Y26.131 E.02875
M73 P15 R33
M73 P15 R33
G1 X323.869 Y158.667 E8.52856
G1 X323.869 Y159.299 E.02875
G1 X190.701 Y26.131 E8.56921
G1 X190.069 Y26.131 E.02875
G1 X323.869 Y159.931 E8.60986
G1 X323.869 Y160.562 E.02875
G1 X189.438 Y26.131 E8.65051
G1 X188.806 Y26.131 E.02875
G1 X323.869 Y161.194 E8.69117
G1 X323.869 Y161.826 E.02875
G1 X188.174 Y26.131 E8.73182
G1 X187.542 Y26.131 E.02875
G1 X323.869 Y162.458 E8.77247
G1 X323.869 Y163.089 E.02875
G1 X186.911 Y26.131 E8.81312
G1 X186.279 Y26.131 E.02875
G1 X323.869 Y163.721 E8.85377
G1 X323.869 Y164.353 E.02875
G1 X185.647 Y26.131 E8.89443
G1 X185.015 Y26.131 E.02875
G1 X323.869 Y164.985 E8.93508
G1 X323.869 Y165.616 E.02875
M73 P16 R33
M73 P16 R33
G1 X184.384 Y26.131 E8.97573
G1 X183.752 Y26.131 E.02875
G1 X323.869 Y166.248 E9.01638
G1 X323.869 Y166.88 E.02875
