; HEADER_BLOCK_START
; generated by OrcaSlicer 2.2.0 on 2025-01-15 at 01:05:42
; total layer number: 1
; filament_density: 1.24
; filament_diameter: 1.75
; max_z_height: 0.25
; HEADER_BLOCK_END

; THUMBNAIL_BLOCK_START

;
; THUMBNAIL_BLOCK_END

; THUMBNAIL_BLOCK_START

;
; THUMBNAIL_BLOCK_END

; THUMBNAIL_BLOCK_START

;
; THUMBNAIL_BLOCK_END

; external perimeters extrusion width = 0.40mm
; perimeters extrusion width = 0.42mm
; infill extrusion width = 0.45mm
; solid infill extrusion width = 0.45mm
; top infill extrusion width = 0.42mm
; first layer extrusion width = 0.50mm

; EXECUTABLE_BLOCK_START
EXCLUDE_OBJECT_DEFINE NAME=Cube_id_0_copy_0 CENTER=175,175 POLYGON=[[100,100],[250,100],[250,250],[100,250],[100,100]]
M73 P0 R10
;TYPE:Custom
G28
G90
G1 X0 F9000
G1 Y20
G1 Z0.600 F600
G1 Y0 F9000
DZOS_SOAK_TIME TIME=250
START_PRINT TEMP=65
G90
G1 X0 F9000
G1 Y20
G1 Z0.600 F600
G1 Y0 F9000
M400
G91
M83
M140 S65 ;set bed temp
M104 S235 ;set extruder temp
M190 S65 ;wait for bed temp
M109 S235;wait for extruder temp
G1 E25 F300
G4 P1000
G1 E-0.200 Z5 F600
G1 X88.000 F9000
M73 P1 R10
M73 P1 R10
G1 Z-5.000 F600
G1 X87.000 E20.88 F1800
G1 X87.000 E13.92 F1800
G1 Y1 E0.16 F1800
M73 P2 R10
M73 P2 R10
G1 X-87.000 E13.92 F1800
G1 X-87.000 E20.88 F1800
G1 Y1 E0.24 F1800
M73 P3 R10
M73 P3 R10
G1 X87.000 E20.88 F1800
G1 X87.000 E13.92 F1800
G1 E-0.200 Z1 F600
M400
G90
G21
M83 ; use relative distances for extrusion
; filament start gcode
M106 S0
;LAYER_CHANGE
;Z:0.25
;HEIGHT:0.25
TIMELAPSE_TAKE_FRAME
G92 E0
G1 E-.5 F1800
;_SET_FAN_SPEED_CHANGING_LAYER
SET_VELOCITY_LIMIT ACCEL=3000 ACCEL_TO_DECEL=1500
G1 Z.65 F36000
G1 X96.301 Y96.312
G1 Z.65
M73 P4 R10
M73 P4 R10
G1 Z.25
G1 E.5 F1800
;TYPE:Skirt
;WIDTH:0.5
G1 F3000
G1 X97.991 Y95.179 E.09249
G1 X100 Y94.777 E.09315
G1 X250 Y94.777 E6.81972
G1 X251.995 Y95.173 E.09249
G1 X253.688 Y96.301 E.09249
G1 X254.821 Y97.991 E.09249
G1 X255.223 Y100 E.09315
G1 X255.223 Y250 E6.81972
G1 X254.827 Y251.995 E.09249
M73 P5 R10
M73 P5 R10
G1 X253.699 Y253.688 E.09249
G1 X252.009 Y254.821 E.09249
G1 X250 Y255.223 E.09315
G1 X100 Y255.223 E6.81972
G1 X98.005 Y254.827 E.09249
G1 X96.312 Y253.699 E.09249
G1 X95.179 Y252.009 E.09249
G1 X94.777 Y250 E.09315
G1 X94.777 Y100 E6.81972
G1 X95.173 Y98.005 E.09249
M73 P6 R10
M73 P6 R10
G1 X96.279 Y96.345 E.09067
M73 P6 R9
; printing object Cube id:0 copy 0
;WIPE_START
M73 P6 R9
G1 X97.932 Y95.219 E-.5
;WIPE_END
EXCLUDE_OBJECT_START NAME=Cube_id_0_copy_0
G1 Z.65 F36000
G1 X249.65 Y249.65 Z.65
G1 Z.25
G1 E.5 F1800
;TYPE:Outer wall
G1 X100.35 Y249.65 E6.78789
G1 X100.35 Y100.35 E6.78789
G1 X249.65 Y100.35 E6.78789
M73 P7 R9
M73 P7 R9
G1 X249.65 Y249.63 E6.78698
M73 P8 R9
M73 P8 R9
G1 X249.204 Y249.204 F36000
M73 P9 R9
;TYPE:Inner wall
M73 P9 R9
G1 F1800
G1 X100.796 Y249.204 E6.74731
G1 X100.796 Y100.796 E6.74731
M73 P10 R9
M73 P10 R9
G1 X249.204 Y100.796 E6.74731
G1 X249.204 Y249.184 E6.7464
M73 P11 R9
;WIPE_START
M73 P11 R9
G1 X247.204 Y249.184 E-.5
M73 P12 R9
;WIPE_END
M73 P12 R9
G1 Z.65 F36000
G1 X249.07 Y101.834 Z.65
G1 Z.25
G1 E.5 F1800
;TYPE:Bottom surface
;WIDTH:0.500481
G1 F5400
G1 X248.367 Y101.131 E.04521
G1 X247.735 Y101.131 E.02876
G1 X248.869 Y102.265 E.07296
G1 X248.869 Y102.897 E.02876
G1 X247.103 Y101.131 E.11363
G1 X246.472 Y101.131 E.02876
G1 X248.869 Y103.528 E.15431
G1 X248.869 Y104.16 E.02876
G1 X245.84 Y101.131 E.19498
G1 X245.208 Y101.131 E.02876
G1 X248.869 Y104.792 E.23566
G1 X248.869 Y105.424 E.02876
G1 X244.576 Y101.131 E.27633
G1 X243.944 Y101.131 E.02876
G1 X248.869 Y106.056 E.317
G1 X248.869 Y106.688 E.02876
G1 X243.312 Y101.131 E.35768
G1 X242.68 Y101.131 E.02876
G1 X248.869 Y107.32 E.39835
G1 X248.869 Y107.952 E.02876
G1 X242.048 Y101.131 E.43903
G1 X241.416 Y101.131 E.02876
G1 X248.869 Y108.584 E.4797
G1 X248.869 Y109.216 E.02876
G1 X240.784 Y101.131 E.52037
G1 X240.152 Y101.131 E.02876
G1 X248.869 Y109.848 E.56105
G1 X248.869 Y110.48 E.02876
G1 X239.52 Y101.131 E.60172
G1 X238.889 Y101.131 E.02876
G1 X248.869 Y111.111 E.6424
G1 X248.869 Y111.743 E.02876
G1 X238.257 Y101.131 E.68307
G1 X237.625 Y101.131 E.02876
G1 X248.869 Y112.375 E.72374
G1 X248.869 Y113.007 E.02876
G1 X236.993 Y101.131 E.76442
G1 X236.361 Y101.131 E.02876
G1 X248.869 Y113.639 E.80509
G1 X248.869 Y114.271 E.02876
G1 X235.729 Y101.131 E.84577
G1 X235.097 Y101.131 E.02876
G1 X248.869 Y114.903 E.88644
G1 X248.869 Y115.535 E.02876
G1 X234.465 Y101.131 E.92711
G1 X233.833 Y101.131 E.02876
M73 P13 R9
M73 P13 R9
G1 X248.869 Y116.167 E.96779
G1 X248.869 Y116.799 E.02876
G1 X233.201 Y101.131 E1.00846
G1 X232.569 Y101.131 E.02876
G1 X248.869 Y117.431 E1.04914
G1 X248.869 Y118.062 E.02876
G1 X231.938 Y101.131 E1.08981
G1 X231.306 Y101.131 E.02876
G1 X248.869 Y118.694 E1.13048
G1 X248.869 Y119.326 E.02876
G1 X230.674 Y101.131 E1.17116
G1 X230.042 Y101.131 E.02876
G1 X248.869 Y119.958 E1.21183
G1 X248.869 Y120.59 E.02876
G1 X229.41 Y101.131 E1.25251
G1 X228.778 Y101.131 E.02876
G1 X248.869 Y121.222 E1.29318
G1 X248.869 Y121.854 E.02876
G1 X228.146 Y101.131 E1.33385
G1 X227.514 Y101.131 E.02876
G1 X248.869 Y122.486 E1.37453
G1 X248.869 Y123.118 E.02876
G1 X226.882 Y101.131 E1.4152
G1 X226.25 Y101.131 E.02876
G1 X248.869 Y123.75 E1.45588
G1 X248.869 Y124.382 E.02876
G1 X225.618 Y101.131 E1.49655
G1 X224.986 Y101.131 E.02876
G1 X248.869 Y125.014 E1.53722
G1 X248.869 Y125.645 E.02876
G1 X224.355 Y101.131 E1.5779
G1 X223.723 Y101.131 E.02876
G1 X248.869 Y126.277 E1.61857
G1 X248.869 Y126.909 E.02876
G1 X223.091 Y101.131 E1.65925
G1 X222.459 Y101.131 E.02876
M73 P14 R9
M73 P14 R9
G1 X248.869 Y127.541 E1.69992
G1 X248.869 Y128.173 E.02876
G1 X221.827 Y101.131 E1.74059
G1 X221.195 Y101.131 E.02876
G1 X248.869 Y128.805 E1.78127
G1 X248.869 Y129.437 E.02876
G1 X220.563 Y101.131 E1.82194
G1 X219.931 Y101.131 E.02876
G1 X248.869 Y130.069 E1.86261
G1 X248.869 Y130.701 E.02876
G1 X219.299 Y101.131 E1.90329
G1 X218.667 Y101.131 E.02876
G1 X248.869 Y131.333 E1.94396
G1 X248.869 Y131.965 E.02876
G1 X218.035 Y101.131 E1.98464
G1 X217.403 Y101.131 E.02876
G1 X248.869 Y132.597 E2.02531
G1 X248.869 Y133.228 E.02876
G1 X216.772 Y101.131 E2.06598
G1 X216.14 Y101.131 E.02876
G1 X248.869 Y133.86 E2.10666
G1 X248.869 Y134.492 E.02876
G1 X215.508 Y101.131 E2.14733
G1 X214.876 Y101.131 E.02876
G1 X248.869 Y135.124 E2.18801
G1 X248.869 Y135.756 E.02876
M73 P15 R9
M73 P15 R9
G1 X214.244 Y101.131 E2.22868
G1 X213.612 Y101.131 E.02876
G1 X248.869 Y136.388 E2.26935
G1 X248.869 Y137.02 E.02876
G1 X212.98 Y101.131 E2.31003
G1 X212.348 Y101.131 E.02876
G1 X248.869 Y137.652 E2.3507
G1 X248.869 Y138.284 E.02876
G1 X211.716 Y101.131 E2.39138
G1 X211.084 Y101.131 E.02876
M73 P15 R8
M73 P15 R8
G1 X248.869 Y138.916 E2.43205
G1 X248.869 Y139.548 E.02876
G1 X210.452 Y101.131 E2.47272
G1 X209.821 Y101.131 E.02876
G1 X248.869 Y140.179 E2.5134
G1 X248.869 Y140.811 E.02876
G1 X209.189 Y101.131 E2.55407
G1 X208.557 Y101.131 E.02876
G1 X248.869 Y141.443 E2.59475
G1 X248.869 Y142.075 E.02876
M73 P16 R8
M73 P16 R8
G1 X207.925 Y101.131 E2.63542
G1 X207.293 Y101.131 E.02876
G1 X248.869 Y142.707 E2.67609
G1 X248.869 Y143.339 E.02876
G1 X206.661 Y101.131 E2.71677
G1 X206.029 Y101.131 E.02876
G1 X248.869 Y143.971 E2.75744
G1 X248.869 Y144.603 E.02876
G1 X205.397 Y101.131 E2.79812
G1 X204.765 Y101.131 E.02876
G1 X248.869 Y145.235 E2.83879
G1 X248.869 Y145.867 E.02876
G1 X204.133 Y101.131 E2.87946
G1 X203.501 Y101.131 E.02876
G1 X248.869 Y146.499 E2.92014
G1 X248.869 Y147.131 E.02876
G1 X202.869 Y101.131 E2.96081
G1 X202.238 Y101.131 E.02876
M73 P17 R8
M73 P17 R8
G1 X248.869 Y147.762 E3.00149
G1 X248.869 Y148.394 E.02876
G1 X201.606 Y101.131 E3.04216
G1 X200.974 Y101.131 E.02876
G1 X248.869 Y149.026 E3.08283
G1 X248.869 Y149.658 E.02876
G1 X200.342 Y101.131 E3.12351
G1 X199.71 Y101.131 E.02876
G1 X248.869 Y150.29 E3.16418
G1 X248.869 Y150.922 E.02876
G1 X199.078 Y101.131 E3.20486
G1 X198.446 Y101.131 E.02876
G1 X248.869 Y151.554 E3.24553
G1 X248.869 Y152.186 E.02876
G1 X197.814 Y101.131 E3.2862
G1 X197.182 Y101.131 E.02876
M73 P18 R8
M73 P18 R8
G1 X248.869 Y152.818 E3.32688
G1 X248.869 Y153.45 E.02876
G1 X196.55 Y101.131 E3.36755
G1 X195.918 Y101.131 E.02876
G1 X248.869 Y154.082 E3.40823
G1 X248.869 Y154.714 E.02876
G1 X195.286 Y101.131 E3.4489
G1 X194.655 Y101.131 E.02876
G1 X248.869 Y155.345 E3.48957
G1 X248.869 Y155.977 E.02876
G1 X194.023 Y101.131 E3.53025
G1 X193.391 Y101.131 E.02876
G1 X248.869 Y156.609 E3.57092
G1 X248.869 Y157.241 E.02876
M73 P19 R8
M73 P19 R8
G1 X192.759 Y101.131 E3.6116
G1 X192.127 Y101.131 E.02876
G1 X248.869 Y157.873 E3.65227
G1 X248.869 Y158.505 E.02876
G1 X191.495 Y101.131 E3.69294
G1 X190.863 Y101.131 E.02876
G1 X248.869 Y159.137 E3.73362
G1 X248.869 Y159.769 E.02876
G1 X190.231 Y101.131 E3.77429
G1 X189.599 Y101.131 E.02876
G1 X248.869 Y160.401 E3.81497
G1 X248.869 Y161.033 E.02876
G1 X188.967 Y101.131 E3.85564
G1 X188.335 Y101.131 E.02876
M73 P20 R8
M73 P20 R8
G1 X248.869 Y161.665 E3.89631
G1 X248.869 Y162.296 E.02876
G1 X187.704 Y101.131 E3.93699
G1 X187.072 Y101.131 E.02876
G1 X248.869 Y162.928 E3.97766
G1 X248.869 Y163.56 E.02876
G1 X186.44 Y101.131 E4.01834
G1 X185.808 Y101.131 E.02876
G1 X248.869 Y164.192 E4.05901
G1 X248.869 Y164.824 E.02876
G1 X185.176 Y101.131 E4.09968
G1 X184.544 Y101.131 E.02876
G1 X248.869 Y165.456 E4.14036
M73 P21 R8
M73 P21 R8
G1 X248.869 Y166.088 E.02876
G1 X183.912 Y101.131 E4.18103
G1 X183.28 Y101.131 E.02876
G1 X248.869 Y166.72 E4.22171
G1 X248.869 Y167.352 E.02876
G1 X182.648 Y101.131 E4.26238
G1 X182.016 Y101.131 E.02876
G1 X248.869 Y167.984 E4.30305
G1 X248.869 Y168.616 E.02876
G1 X181.384 Y101.131 E4.34373
G1 X180.752 Y101.131 E.02876
M73 P22 R8
M73 P22 R8
G1 X248.869 Y169.248 E4.3844
G1 X248.869 Y169.879 E.02876
G1 X180.121 Y101.131 E4.42508
G1 X179.489 Y101.131 E.02876
G1 X248.869 Y170.511 E4.46575
G1 X248.869 Y171.143 E.02876
G1 X178.857 Y101.131 E4.50642
G1 X178.225 Y101.131 E.02876
G1 X248.869 Y171.775 E4.5471
G1 X248.869 Y172.407 E.02876
G1 X177.593 Y101.131 E4.58777
G1 X176.961 Y101.131 E.02876
M73 P23 R8
M73 P23 R8
G1 X248.869 Y173.039 E4.62845
G1 X248.869 Y173.671 E.02876
G1 X176.329 Y101.131 E4.66912
G1 X175.697 Y101.131 E.02876
G1 X248.869 Y174.303 E4.70979
G1 X248.869 Y174.935 E.02876
G1 X175.065 Y101.131 E4.75047
G1 X174.433 Y101.131 E.02876
G1 X248.869 Y175.567 E4.79114
G1 X248.869 Y176.199 E.02876
G1 X173.801 Y101.131 E4.83182
G1 X173.169 Y101.131 E.02876
M73 P24 R8
M73 P24 R8
G1 X248.869 Y176.831 E4.87249
G1 X248.869 Y177.462 E.02876
G1 X172.538 Y101.131 E4.91316
G1 X171.906 Y101.131 E.02876
G1 X248.869 Y178.094 E4.95384
G1 X248.869 Y178.726 E.02876
G1 X171.274 Y101.131 E4.99451
G1 X170.642 Y101.131 E.02876
M73 P24 R7
M73 P24 R7
G1 X248.869 Y179.358 E5.03519
G1 X248.869 Y179.99 E.02876
M73 P25 R7
M73 P25 R7
G1 X170.01 Y101.131 E5.07586
G1 X169.378 Y101.131 E.02876
G1 X248.869 Y180.622 E5.11653
G1 X248.869 Y181.254 E.02876
G1 X168.746 Y101.131 E5.15721
G1 X168.114 Y101.131 E.02876
G1 X248.869 Y181.886 E5.19788
G1 X248.869 Y182.518 E.02876
G1 X167.482 Y101.131 E5.23856
G1 X166.85 Y101.131 E.02876
M73 P26 R7
M73 P26 R7
G1 X248.869 Y183.15 E5.27923
G1 X248.869 Y183.782 E.02876
G1 X166.218 Y101.131 E5.3199
G1 X165.587 Y101.131 E.02876
G1 X248.869 Y184.413 E5.36058
G1 X248.869 Y185.045 E.02876
G1 X164.955 Y101.131 E5.40125
G1 X164.323 Y101.131 E.02876
M73 P27 R7
M73 P27 R7
G1 X248.869 Y185.677 E5.44193
G1 X248.869 Y186.309 E.02876
G1 X163.691 Y101.131 E5.4826
G1 X163.059 Y101.131 E.02876
G1 X248.869 Y186.941 E5.52327
G1 X248.869 Y187.573 E.02876
G1 X162.427 Y101.131 E5.56395
G1 X161.795 Y101.131 E.02876
G1 X248.869 Y188.205 E5.60462
G1 X248.869 Y188.837 E.02876
M73 P28 R7
M73 P28 R7
G1 X161.163 Y101.131 E5.6453
G1 X160.531 Y101.131 E.02876
G1 X248.869 Y189.469 E5.68597
G1 X248.869 Y190.101 E.02876
G1 X159.899 Y101.131 E5.72664
G1 X159.267 Y101.131 E.02876
G1 X248.869 Y190.733 E5.76732
G1 X248.869 Y191.365 E.02876
G1 X158.635 Y101.131 E5.80799
G1 X158.004 Y101.131 E.02876
M73 P29 R7
M73 P29 R7
G1 X248.869 Y191.996 E5.84867
G1 X248.869 Y192.628 E.02876
G1 X157.372 Y101.131 E5.88934
G1 X156.74 Y101.131 E.02876
G1 X248.869 Y193.26 E5.93001
G1 X248.869 Y193.892 E.02876
G1 X156.108 Y101.131 E5.97069
G1 X155.476 Y101.131 E.02876
M73 P30 R7
M73 P30 R7
G1 X248.869 Y194.524 E6.01136
G1 X248.869 Y195.156 E.02876
G1 X154.844 Y101.131 E6.05204
G1 X154.212 Y101.131 E.02876
G1 X248.869 Y195.788 E6.09271
G1 X248.869 Y196.42 E.02876
G1 X153.58 Y101.131 E6.13338
G1 X152.948 Y101.131 E.02876
M73 P31 R7
M73 P31 R7
G1 X248.869 Y197.052 E6.17406
G1 X248.869 Y197.684 E.02876
G1 X152.316 Y101.131 E6.21473
G1 X151.684 Y101.131 E.02876
G1 X248.869 Y198.316 E6.25541
G1 X248.869 Y198.948 E.02876
G1 X151.052 Y101.131 E6.29608
G1 X150.421 Y101.131 E.02876
M73 P32 R7
M73 P32 R7
G1 X248.869 Y199.579 E6.33675
G1 X248.869 Y200.211 E.02876
G1 X149.789 Y101.131 E6.37743
G1 X149.157 Y101.131 E.02876
G1 X248.869 Y200.843 E6.4181
G1 X248.869 Y201.475 E.02876
G1 X148.525 Y101.131 E6.45878
G1 X147.893 Y101.131 E.02876
M73 P33 R7
M73 P33 R7
G1 X248.869 Y202.107 E6.49945
G1 X248.869 Y202.739 E.02876
G1 X147.261 Y101.131 E6.54012
G1 X146.629 Y101.131 E.02876
G1 X248.869 Y203.371 E6.5808
G1 X248.869 Y204.003 E.02876
G1 X145.997 Y101.131 E6.62147
G1 X145.365 Y101.131 E.02876
M73 P34 R7
M73 P34 R7
G1 X248.869 Y204.635 E6.66215
G1 X248.869 Y205.267 E.02876
M73 P34 R6
M73 P34 R6
G1 X144.733 Y101.131 E6.70282
G1 X144.101 Y101.131 E.02876
G1 X248.869 Y205.899 E6.74349
G1 X248.869 Y206.531 E.02876
G1 X143.47 Y101.131 E6.78417
G1 X142.838 Y101.131 E.02876
M73 P35 R6
M73 P35 R6
G1 X248.869 Y207.162 E6.82484
G1 X248.869 Y207.794 E.02876
G1 X142.206 Y101.131 E6.86551
G1 X141.574 Y101.131 E.02876
G1 X248.869 Y208.426 E6.90619
G1 X248.869 Y209.058 E.02876
G1 X140.942 Y101.131 E6.94686
G1 X140.31 Y101.131 E.02876
M73 P36 R6
M73 P36 R6
G1 X248.869 Y209.69 E6.98754
G1 X248.869 Y210.322 E.02876
G1 X139.678 Y101.131 E7.02821
G1 X139.046 Y101.131 E.02876
G1 X248.869 Y210.954 E7.06888
G1 X248.869 Y211.586 E.02876
M73 P37 R6
M73 P37 R6
G1 X138.414 Y101.131 E7.10956
G1 X137.782 Y101.131 E.02876
G1 X248.869 Y212.218 E7.15023
G1 X248.869 Y212.85 E.02876
G1 X137.15 Y101.131 E7.19091
G1 X136.518 Y101.131 E.02876
G1 X248.869 Y213.482 E7.23158
G1 X248.869 Y214.113 E.02876
M73 P38 R6
M73 P38 R6
G1 X135.887 Y101.131 E7.27225
G1 X135.255 Y101.131 E.02876
G1 X248.869 Y214.745 E7.31293
G1 X248.869 Y215.377 E.02876
G1 X134.623 Y101.131 E7.3536
G1 X133.991 Y101.131 E.02876
M73 P39 R6
M73 P39 R6
G1 X248.869 Y216.009 E7.39428
G1 X248.869 Y216.641 E.02876
G1 X133.359 Y101.131 E7.43495
G1 X132.727 Y101.131 E.02876
G1 X248.869 Y217.273 E7.47562
G1 X248.869 Y217.905 E.02876
G1 X132.095 Y101.131 E7.5163
G1 X131.463 Y101.131 E.02876
M73 P40 R6
M73 P40 R6
G1 X248.869 Y218.537 E7.55697
G1 X248.869 Y219.169 E.02876
G1 X130.831 Y101.131 E7.59765
G1 X130.199 Y101.131 E.02876
G1 X248.869 Y219.801 E7.63832
G1 X248.869 Y220.433 E.02876
M73 P41 R6
M73 P41 R6
G1 X129.567 Y101.131 E7.67899
G1 X128.935 Y101.131 E.02876
G1 X248.869 Y221.065 E7.71967
G1 X248.869 Y221.696 E.02876
G1 X128.304 Y101.131 E7.76034
G1 X127.672 Y101.131 E.02876
G1 X248.869 Y222.328 E7.80102
G1 X248.869 Y222.96 E.02876
M73 P42 R6
M73 P42 R6
G1 X127.04 Y101.131 E7.84169
G1 X126.408 Y101.131 E.02876
G1 X248.869 Y223.592 E7.88236
G1 X248.869 Y224.224 E.02876
G1 X125.776 Y101.131 E7.92304
G1 X125.144 Y101.131 E.02876
M73 P43 R6
M73 P43 R6
G1 X248.869 Y224.856 E7.96371
G1 X248.869 Y225.488 E.02876
G1 X124.512 Y101.131 E8.00439
G1 X123.88 Y101.131 E.02876
M73 P43 R5
M73 P43 R5
G1 X248.869 Y226.12 E8.04506
G1 X248.869 Y226.752 E.02876
M73 P44 R5
M73 P44 R5
G1 X123.248 Y101.131 E8.08573
G1 X122.616 Y101.131 E.02876
G1 X248.869 Y227.384 E8.12641
G1 X248.869 Y228.016 E.02876
G1 X121.984 Y101.131 E8.16708
G1 X121.352 Y101.131 E.02876
M73 P45 R5
M73 P45 R5
G1 X248.869 Y228.648 E8.20776
G1 X248.869 Y229.279 E.02876
G1 X120.721 Y101.131 E8.24843
G1 X120.089 Y101.131 E.02876
G1 X248.869 Y229.911 E8.2891
G1 X248.869 Y230.543 E.02876
M73 P46 R5
M73 P46 R5
G1 X119.457 Y101.131 E8.32978
G1 X118.825 Y101.131 E.02876
G1 X248.869 Y231.175 E8.37045
G1 X248.869 Y231.807 E.02876
