; HEADER_BLOCK_START
; generated by OrcaSlicer 2.2.0 on 2025-01-15 at 01:07:32
; total layer number: 1
; filament_density: 1.24
; filament_diameter: 1.75
; max_z_height: 0.25
; HEADER_BLOCK_END

; THUMBNAIL_BLOCK_START

;
; THUMBNAIL_BLOCK_END

; THUMBNAIL_BLOCK_START

;
; THUMBNAIL_BLOCK_END

; THUMBNAIL_BLOCK_START

;
; THUMBNAIL_BLOCK_END

; external perimeters extrusion width = 0.40mm
; perimeters extrusion width = 0.42mm
; infill extrusion width = 0.45mm
; solid infill extrusion width = 0.45mm
; top infill extrusion width = 0.42mm
; first layer extrusion width = 0.50mm

; EXECUTABLE_BLOCK_START
EXCLUDE_OBJECT_DEFINE NAME=Cube_id_0_copy_0 CENTER=175,175 POLYGON=[[75,75],[275,75],[275,275],[75,275],[75,75]]
M73 P0 R18
;TYPE:Custom
G28
G90
G1 X0 F9000
G1 Y20
G1 Z0.600 F600
G1 Y0 F9000
DZOS_SOAK_TIME TIME=500
START_PRINT TEMP=65
G90
G1 X0 F9000
G1 Y20
G1 Z0.600 F600
G1 Y0 F9000
M400
G91
M83
M140 S65 ;set bed temp
M104 S235 ;set extruder temp
M190 S65 ;wait for bed temp
M109 S235;wait for extruder temp
G1 E25 F300
G4 P1000
G1 E-0.200 Z5 F600
G1 X88.000 F9000
G1 Z-5.000 F600
G1 X87.000 E20.88 F1800
G1 X87.000 E13.92 F1800
M73 P0 R17
M73 P0 R17
G1 Y1 E0.16 F1800
M73 P1 R17
M73 P1 R17
G1 X-87.000 E13.92 F1800
G1 X-87.000 E20.88 F1800
G1 Y1 E0.24 F1800
G1 X87.000 E20.88 F1800
G1 X87.000 E13.92 F1800
M73 P2 R17
M73 P2 R17
G1 E-0.200 Z1 F600
M400
G90
G21
M83 ; use relative distances for extrusion
; filament start gcode
M106 S0
;LAYER_CHANGE
;Z:0.25
;HEIGHT:0.25
TIMELAPSE_TAKE_FRAME
G92 E0
G1 E-.5 F1800
;_SET_FAN_SPEED_CHANGING_LAYER
SET_VELOCITY_LIMIT ACCEL=3000 ACCEL_TO_DECEL=1500
G1 Z.65 F36000
G1 X71.301 Y71.312
G1 Z.65
G1 Z.25
G1 E.5 F1800
;TYPE:Skirt
;WIDTH:0.5
G1 F3000
G1 X72.991 Y70.179 E.09249
G1 X75 Y69.777 E.09315
G1 X275 Y69.777 E9.09296
G1 X276.995 Y70.173 E.09249
G1 X278.688 Y71.301 E.09249
G1 X279.821 Y72.991 E.09249
G1 X280.223 Y75 E.09315
G1 X280.223 Y275 E9.09296
G1 X279.827 Y276.995 E.09249
M73 P3 R17
M73 P3 R17
G1 X278.699 Y278.688 E.09249
G1 X277.009 Y279.821 E.09249
G1 X275 Y280.223 E.09315
G1 X75 Y280.223 E9.09296
G1 X73.005 Y279.827 E.09249
G1 X71.312 Y278.699 E.09249
G1 X70.179 Y277.009 E.09249
G1 X69.777 Y275 E.09315
G1 X69.777 Y75 E9.09296
G1 X70.173 Y73.005 E.09249
G1 X71.279 Y71.345 E.09067
; printing object Cube id:0 copy 0
;WIPE_START
G1 X72.932 Y70.219 E-.5
;WIPE_END
EXCLUDE_OBJECT_START NAME=Cube_id_0_copy_0
G1 Z.65 F36000
G1 X274.65 Y274.65 Z.65
G1 Z.25
G1 E.5 F1800
;TYPE:Outer wall
G1 X75.35 Y274.65 E9.06113
G1 X75.35 Y75.35 E9.06113
M73 P4 R17
M73 P4 R17
G1 X274.65 Y75.35 E9.06113
M73 P5 R17
M73 P5 R17
G1 X274.65 Y274.63 E9.06022
G1 X274.204 Y274.204 F36000
M73 P6 R17
;TYPE:Inner wall
M73 P6 R17
G1 F1800
G1 X75.796 Y274.204 E9.02055
G1 X75.796 Y75.796 E9.02055
M73 P7 R16
M73 P7 R16
G1 X274.204 Y75.796 E9.02055
G1 X274.204 Y274.184 E9.01964
M73 P8 R16
;WIPE_START
M73 P8 R16
G1 X272.204 Y274.184 E-.5
;WIPE_END
G1 Z.65 F36000
G1 X274.07 Y76.834 Z.65
G1 Z.25
G1 E.5 F1800
;TYPE:Bottom surface
;WIDTH:0.500659
G1 F5400
G1 X273.367 Y76.131 E.04526
G1 X272.735 Y76.131 E.02878
G1 X273.869 Y77.265 E.07303
G1 X273.869 Y77.897 E.02878
G1 X272.103 Y76.131 E.11374
G1 X271.47 Y76.131 E.02878
G1 X273.869 Y78.53 E.15444
G1 X273.869 Y79.162 E.02878
G1 X270.838 Y76.131 E.19515
G1 X270.206 Y76.131 E.02878
G1 X273.869 Y79.794 E.23585
G1 X273.869 Y80.426 E.02878
G1 X269.574 Y76.131 E.27656
G1 X268.942 Y76.131 E.02878
G1 X273.869 Y81.058 E.31727
G1 X273.869 Y81.69 E.02878
G1 X268.31 Y76.131 E.35797
G1 X267.677 Y76.131 E.02878
G1 X273.869 Y82.323 E.39868
G1 X273.869 Y82.955 E.02878
G1 X267.045 Y76.131 E.43939
G1 X266.413 Y76.131 E.02878
M73 P9 R16
M73 P9 R16
G1 X273.869 Y83.587 E.48009
G1 X273.869 Y84.219 E.02878
G1 X265.781 Y76.131 E.5208
G1 X265.149 Y76.131 E.02878
G1 X273.869 Y84.851 E.56151
G1 X273.869 Y85.483 E.02878
G1 X264.517 Y76.131 E.60221
G1 X263.884 Y76.131 E.02878
G1 X273.869 Y86.116 E.64292
G1 X273.869 Y86.748 E.02878
G1 X263.252 Y76.131 E.68363
G1 X262.62 Y76.131 E.02878
G1 X273.869 Y87.38 E.72433
G1 X273.869 Y88.012 E.02878
G1 X261.988 Y76.131 E.76504
G1 X261.356 Y76.131 E.02878
G1 X273.869 Y88.644 E.80574
G1 X273.869 Y89.276 E.02878
G1 X260.724 Y76.131 E.84645
G1 X260.091 Y76.131 E.02878
G1 X273.869 Y89.909 E.88716
G1 X273.869 Y90.541 E.02878
G1 X259.459 Y76.131 E.92786
G1 X258.827 Y76.131 E.02878
G1 X273.869 Y91.173 E.96857
G1 X273.869 Y91.805 E.02878
G1 X258.195 Y76.131 E1.00928
G1 X257.563 Y76.131 E.02878
G1 X273.869 Y92.437 E1.04998
G1 X273.869 Y93.069 E.02878
G1 X256.931 Y76.131 E1.09069
G1 X256.298 Y76.131 E.02878
G1 X273.869 Y93.702 E1.1314
G1 X273.869 Y94.334 E.02878
G1 X255.666 Y76.131 E1.1721
G1 X255.034 Y76.131 E.02878
G1 X273.869 Y94.966 E1.21281
G1 X273.869 Y95.598 E.02878
G1 X254.402 Y76.131 E1.25351
G1 X253.77 Y76.131 E.02878
G1 X273.869 Y96.23 E1.29422
G1 X273.869 Y96.862 E.02878
G1 X253.138 Y76.131 E1.33493
G1 X252.505 Y76.131 E.02878
G1 X273.869 Y97.495 E1.37563
G1 X273.869 Y98.127 E.02878
G1 X251.873 Y76.131 E1.41634
G1 X251.241 Y76.131 E.02878
G1 X273.869 Y98.759 E1.45705
G1 X273.869 Y99.391 E.02878
G1 X250.609 Y76.131 E1.49775
G1 X249.977 Y76.131 E.02878
G1 X273.869 Y100.023 E1.53846
G1 X273.869 Y100.655 E.02878
G1 X249.345 Y76.131 E1.57917
G1 X248.712 Y76.131 E.02878
G1 X273.869 Y101.288 E1.61987
G1 X273.869 Y101.92 E.02878
G1 X248.08 Y76.131 E1.66058
G1 X247.448 Y76.131 E.02878
G1 X273.869 Y102.552 E1.70129
G1 X273.869 Y103.184 E.02878
G1 X246.816 Y76.131 E1.74199
G1 X246.184 Y76.131 E.02878
G1 X273.869 Y103.816 E1.7827
G1 X273.869 Y104.448 E.02878
G1 X245.552 Y76.131 E1.8234
G1 X244.919 Y76.131 E.02878
G1 X273.869 Y105.081 E1.86411
G1 X273.869 Y105.713 E.02878
M73 P10 R16
M73 P10 R16
G1 X244.287 Y76.131 E1.90482
G1 X243.655 Y76.131 E.02878
G1 X273.869 Y106.345 E1.94552
G1 X273.869 Y106.977 E.02878
G1 X243.023 Y76.131 E1.98623
G1 X242.391 Y76.131 E.02878
G1 X273.869 Y107.609 E2.02694
G1 X273.869 Y108.241 E.02878
G1 X241.759 Y76.131 E2.06764
G1 X241.126 Y76.131 E.02878
G1 X273.869 Y108.874 E2.10835
G1 X273.869 Y109.506 E.02878
G1 X240.494 Y76.131 E2.14906
G1 X239.862 Y76.131 E.02878
G1 X273.869 Y110.138 E2.18976
G1 X273.869 Y110.77 E.02878
G1 X239.23 Y76.131 E2.23047
G1 X238.598 Y76.131 E.02878
G1 X273.869 Y111.402 E2.27117
G1 X273.869 Y112.034 E.02878
G1 X237.966 Y76.131 E2.31188
G1 X237.333 Y76.131 E.02878
G1 X273.869 Y112.667 E2.35259
G1 X273.869 Y113.299 E.02878
G1 X236.701 Y76.131 E2.39329
G1 X236.069 Y76.131 E.02878
G1 X273.869 Y113.931 E2.434
G1 X273.869 Y114.563 E.02878
G1 X235.437 Y76.131 E2.47471
G1 X234.805 Y76.131 E.02878
G1 X273.869 Y115.195 E2.51541
G1 X273.869 Y115.827 E.02878
G1 X234.173 Y76.131 E2.55612
G1 X233.54 Y76.131 E.02878
G1 X273.869 Y116.46 E2.59683
G1 X273.869 Y117.092 E.02878
G1 X232.908 Y76.131 E2.63753
M73 P11 R16
M73 P11 R16
G1 X232.276 Y76.131 E.02878
G1 X273.869 Y117.724 E2.67824
G1 X273.869 Y118.356 E.02878
G1 X231.644 Y76.131 E2.71894
G1 X231.012 Y76.131 E.02878
G1 X273.869 Y118.988 E2.75965
G1 X273.869 Y119.62 E.02878
G1 X230.38 Y76.131 E2.80036
G1 X229.747 Y76.131 E.02878
G1 X273.869 Y120.253 E2.84106
G1 X273.869 Y120.885 E.02878
G1 X229.115 Y76.131 E2.88177
G1 X228.483 Y76.131 E.02878
G1 X273.869 Y121.517 E2.92248
G1 X273.869 Y122.149 E.02878
G1 X227.851 Y76.131 E2.96318
G1 X227.219 Y76.131 E.02878
G1 X273.869 Y122.781 E3.00389
G1 X273.869 Y123.413 E.02878
G1 X226.587 Y76.131 E3.0446
G1 X225.954 Y76.131 E.02878
G1 X273.869 Y124.046 E3.0853
G1 X273.869 Y124.678 E.02878
G1 X225.322 Y76.131 E3.12601
G1 X224.69 Y76.131 E.02878
G1 X273.869 Y125.31 E3.16672
G1 X273.869 Y125.942 E.02878
G1 X224.058 Y76.131 E3.20742
G1 X223.426 Y76.131 E.02878
M73 P12 R15
M73 P12 R15
G1 X273.869 Y126.574 E3.24813
G1 X273.869 Y127.206 E.02878
G1 X222.794 Y76.131 E3.28883
G1 X222.161 Y76.131 E.02878
G1 X273.869 Y127.839 E3.32954
G1 X273.869 Y128.471 E.02878
G1 X221.529 Y76.131 E3.37025
G1 X220.897 Y76.131 E.02878
G1 X273.869 Y129.103 E3.41095
G1 X273.869 Y129.735 E.02878
G1 X220.265 Y76.131 E3.45166
G1 X219.633 Y76.131 E.02878
G1 X273.869 Y130.367 E3.49237
G1 X273.869 Y130.999 E.02878
G1 X219.001 Y76.131 E3.53307
G1 X218.368 Y76.131 E.02878
G1 X273.869 Y131.632 E3.57378
G1 X273.869 Y132.264 E.02878
G1 X217.736 Y76.131 E3.61449
G1 X217.104 Y76.131 E.02878
G1 X273.869 Y132.896 E3.65519
G1 X273.869 Y133.528 E.02878
G1 X216.472 Y76.131 E3.6959
G1 X215.84 Y76.131 E.02878
G1 X273.869 Y134.16 E3.7366
G1 X273.869 Y134.792 E.02878
M73 P13 R15
M73 P13 R15
G1 X215.208 Y76.131 E3.77731
G1 X214.575 Y76.131 E.02878
G1 X273.869 Y135.425 E3.81802
G1 X273.869 Y136.057 E.02878
G1 X213.943 Y76.131 E3.85872
G1 X213.311 Y76.131 E.02878
G1 X273.869 Y136.689 E3.89943
G1 X273.869 Y137.321 E.02878
G1 X212.679 Y76.131 E3.94014
G1 X212.047 Y76.131 E.02878
G1 X273.869 Y137.953 E3.98084
G1 X273.869 Y138.585 E.02878
G1 X211.415 Y76.131 E4.02155
G1 X210.782 Y76.131 E.02878
G1 X273.869 Y139.218 E4.06226
G1 X273.869 Y139.85 E.02878
G1 X210.15 Y76.131 E4.10296
G1 X209.518 Y76.131 E.02878
G1 X273.869 Y140.482 E4.14367
G1 X273.869 Y141.114 E.02878
G1 X208.886 Y76.131 E4.18438
M73 P14 R15
M73 P14 R15
G1 X208.254 Y76.131 E.02878
G1 X273.869 Y141.746 E4.22508
G1 X273.869 Y142.378 E.02878
G1 X207.622 Y76.131 E4.26579
G1 X206.989 Y76.131 E.02878
G1 X273.869 Y143.011 E4.30649
G1 X273.869 Y143.643 E.02878
G1 X206.357 Y76.131 E4.3472
G1 X205.725 Y76.131 E.02878
G1 X273.869 Y144.275 E4.38791
G1 X273.869 Y144.907 E.02878
G1 X205.093 Y76.131 E4.42861
G1 X204.461 Y76.131 E.02878
G1 X273.869 Y145.539 E4.46932
G1 X273.869 Y146.171 E.02878
G1 X203.829 Y76.131 E4.51003
G1 X203.196 Y76.131 E.02878
G1 X273.869 Y146.804 E4.55073
G1 X273.869 Y147.436 E.02878
M73 P15 R15
M73 P15 R15
G1 X202.564 Y76.131 E4.59144
G1 X201.932 Y76.131 E.02878
G1 X273.869 Y148.068 E4.63215
G1 X273.869 Y148.7 E.02878
G1 X201.3 Y76.131 E4.67285
G1 X200.668 Y76.131 E.02878
G1 X273.869 Y149.332 E4.71356
G1 X273.869 Y149.964 E.02878
G1 X200.036 Y76.131 E4.75426
G1 X199.403 Y76.131 E.02878
G1 X273.869 Y150.597 E4.79497
G1 X273.869 Y151.229 E.02878
G1 X198.771 Y76.131 E4.83568
G1 X198.139 Y76.131 E.02878
G1 X273.869 Y151.861 E4.87638
G1 X273.869 Y152.493 E.02878
G1 X197.507 Y76.131 E4.91709
G1 X196.875 Y76.131 E.02878
G1 X273.869 Y153.125 E4.9578
G1 X273.869 Y153.757 E.02878
M73 P16 R15
M73 P16 R15
G1 X196.243 Y76.131 E4.9985
G1 X195.61 Y76.131 E.02878
G1 X273.869 Y154.39 E5.03921
G1 X273.869 Y155.022 E.02878
G1 X194.978 Y76.131 E5.07992
G1 X194.346 Y76.131 E.02878
G1 X273.869 Y155.654 E5.12062
G1 X273.869 Y156.286 E.02878
G1 X193.714 Y76.131 E5.16133
G1 X193.082 Y76.131 E.02878
G1 X273.869 Y156.918 E5.20203
G1 X273.869 Y157.55 E.02878
G1 X192.45 Y76.131 E5.24274
G1 X191.817 Y76.131 E.02878
G1 X273.869 Y158.183 E5.28345
G1 X273.869 Y158.815 E.02878
M73 P17 R15
M73 P17 R15
G1 X191.185 Y76.131 E5.32415
G1 X190.553 Y76.131 E.02878
G1 X273.869 Y159.447 E5.36486
G1 X273.869 Y160.079 E.02878
G1 X189.921 Y76.131 E5.40557
G1 X189.289 Y76.131 E.02878
G1 X273.869 Y160.711 E5.44627
G1 X273.869 Y161.343 E.02878
M73 P17 R14
M73 P17 R14
G1 X188.657 Y76.131 E5.48698
G1 X188.024 Y76.131 E.02878
G1 X273.869 Y161.976 E5.52769
G1 X273.869 Y162.608 E.02878
G1 X187.392 Y76.131 E5.56839
G1 X186.76 Y76.131 E.02878
G1 X273.869 Y163.24 E5.6091
G1 X273.869 Y163.872 E.02878
M73 P18 R14
M73 P18 R14
G1 X186.128 Y76.131 E5.64981
G1 X185.496 Y76.131 E.02878
G1 X273.869 Y164.504 E5.69051
G1 X273.869 Y165.136 E.02878
G1 X184.864 Y76.131 E5.73122
G1 X184.231 Y76.131 E.02878
G1 X273.869 Y165.769 E5.77192
G1 X273.869 Y166.401 E.02878
G1 X183.599 Y76.131 E5.81263
G1 X182.967 Y76.131 E.02878
G1 X273.869 Y167.033 E5.85334
G1 X273.869 Y167.665 E.02878
G1 X182.335 Y76.131 E5.89404
G1 X181.703 Y76.131 E.02878
G1 X273.869 Y168.297 E5.93475
G1 X273.869 Y168.929 E.02878
M73 P19 R14
M73 P19 R14
G1 X181.071 Y76.131 E5.97546
G1 X180.438 Y76.131 E.02878
G1 X273.869 Y169.562 E6.01616
G1 X273.869 Y170.194 E.02878
G1 X179.806 Y76.131 E6.05687
G1 X179.174 Y76.131 E.02878
G1 X273.869 Y170.826 E6.09758
G1 X273.869 Y171.458 E.02878
G1 X178.542 Y76.131 E6.13828
G1 X177.91 Y76.131 E.02878
G1 X273.869 Y172.09 E6.17899
G1 X273.869 Y172.722 E.02878
G1 X177.278 Y76.131 E6.21969
G1 X176.645 Y76.131 E.02878
M73 P20 R14
M73 P20 R14
G1 X273.869 Y173.355 E6.2604
G1 X273.869 Y173.987 E.02878
G1 X176.013 Y76.131 E6.30111
G1 X175.381 Y76.131 E.02878
G1 X273.869 Y174.619 E6.34181
G1 X273.869 Y175.251 E.02878
G1 X174.749 Y76.131 E6.38252
G1 X174.117 Y76.131 E.02878
G1 X273.869 Y175.883 E6.42323
G1 X273.869 Y176.515 E.02878
G1 X173.485 Y76.131 E6.46393
G1 X172.852 Y76.131 E.02878
G1 X273.869 Y177.148 E6.50464
G1 X273.869 Y177.78 E.02878
M73 P21 R14
M73 P21 R14
G1 X172.22 Y76.131 E6.54535
G1 X171.588 Y76.131 E.02878
G1 X273.869 Y178.412 E6.58605
G1 X273.869 Y179.044 E.02878
G1 X170.956 Y76.131 E6.62676
G1 X170.324 Y76.131 E.02878
G1 X273.869 Y179.676 E6.66747
G1 X273.869 Y180.308 E.02878
G1 X169.692 Y76.131 E6.70817
G1 X169.06 Y76.131 E.02878
G1 X273.869 Y180.941 E6.74888
G1 X273.869 Y181.573 E.02878
M73 P22 R14
M73 P22 R14
G1 X168.427 Y76.131 E6.78958
G1 X167.795 Y76.131 E.02878
G1 X273.869 Y182.205 E6.83029
G1 X273.869 Y182.837 E.02878
G1 X167.163 Y76.131 E6.871
G1 X166.531 Y76.131 E.02878
G1 X273.869 Y183.469 E6.9117
G1 X273.869 Y184.101 E.02878
G1 X165.899 Y76.131 E6.95241
G1 X165.267 Y76.131 E.02878
G1 X273.869 Y184.733 E6.99312
G1 X273.869 Y185.366 E.02878
G1 X164.634 Y76.131 E7.03382
G1 X164.002 Y76.131 E.02878
M73 P23 R13
M73 P23 R13
G1 X273.869 Y185.998 E7.07453
G1 X273.869 Y186.63 E.02878
G1 X163.37 Y76.131 E7.11524
G1 X162.738 Y76.131 E.02878
G1 X273.869 Y187.262 E7.15594
G1 X273.869 Y187.894 E.02878
G1 X162.106 Y76.131 E7.19665
G1 X161.474 Y76.131 E.02878
G1 X273.869 Y188.526 E7.23735
G1 X273.869 Y189.159 E.02878
G1 X160.841 Y76.131 E7.27806
G1 X160.209 Y76.131 E.02878
M73 P24 R13
M73 P24 R13
G1 X273.869 Y189.791 E7.31877
G1 X273.869 Y190.423 E.02878
G1 X159.577 Y76.131 E7.35947
G1 X158.945 Y76.131 E.02878
G1 X273.869 Y191.055 E7.40018
G1 X273.869 Y191.687 E.02878
G1 X158.313 Y76.131 E7.44089
G1 X157.681 Y76.131 E.02878
G1 X273.869 Y192.319 E7.48159
G1 X273.869 Y192.952 E.02878
G1 X157.048 Y76.131 E7.5223
G1 X156.416 Y76.131 E.02878
M73 P25 R13
M73 P25 R13
G1 X273.869 Y193.584 E7.56301
G1 X273.869 Y194.216 E.02878
G1 X155.784 Y76.131 E7.60371
G1 X155.152 Y76.131 E.02878
G1 X273.869 Y194.848 E7.64442
G1 X273.869 Y195.48 E.02878
G1 X154.52 Y76.131 E7.68512
G1 X153.888 Y76.131 E.02878
G1 X273.869 Y196.112 E7.72583
G1 X273.869 Y196.745 E.02878
M73 P26 R13
M73 P26 R13
G1 X153.255 Y76.131 E7.76654
G1 X152.623 Y76.131 E.02878
G1 X273.869 Y197.377 E7.80724
G1 X273.869 Y198.009 E.02878
G1 X151.991 Y76.131 E7.84795
G1 X151.359 Y76.131 E.02878
G1 X273.869 Y198.641 E7.88866
G1 X273.869 Y199.273 E.02878
G1 X150.727 Y76.131 E7.92936
G1 X150.095 Y76.131 E.02878
G1 X273.869 Y199.905 E7.97007
G1 X273.869 Y200.538 E.02878
M73 P27 R13
M73 P27 R13
G1 X149.462 Y76.131 E8.01078
G1 X148.83 Y76.131 E.02878
G1 X273.869 Y201.17 E8.05148
G1 X273.869 Y201.802 E.02878
G1 X148.198 Y76.131 E8.09219
G1 X147.566 Y76.131 E.02878
G1 X273.869 Y202.434 E8.1329
G1 X273.869 Y203.066 E.02878
G1 X146.934 Y76.131 E8.1736
G1 X146.302 Y76.131 E.02878
G1 X273.869 Y203.698 E8.21431
G1 X273.869 Y204.331 E.02878
M73 P28 R13
M73 P28 R13
G1 X145.669 Y76.131 E8.25501
G1 X145.037 Y76.131 E.02878
G1 X273.869 Y204.963 E8.29572
G1 X273.869 Y205.595 E.02878
M73 P28 R12
M73 P28 R12
G1 X144.405 Y76.131 E8.33643
G1 X143.773 Y76.131 E.02878
G1 X273.869 Y206.227 E8.37713
G1 X273.869 Y206.859 E.02878
G1 X143.141 Y76.131 E8.41784
G1 X142.509 Y76.131 E.02878
M73 P29 R12
M73 P29 R12
G1 X273.869 Y207.491 E8.45855
G1 X273.869 Y208.124 E.02878
G1 X141.876 Y76.131 E8.49925
G1 X141.244 Y76.131 E.02878
G1 X273.869 Y208.756 E8.53996
G1 X273.869 Y209.388 E.02878
G1 X140.612 Y76.131 E8.58067
G1 X139.98 Y76.131 E.02878
G1 X273.869 Y210.02 E8.62137
G1 X273.869 Y210.652 E.02878
M73 P30 R12
M73 P30 R12
G1 X139.348 Y76.131 E8.66208
G1 X138.716 Y76.131 E.02878
G1 X273.869 Y211.284 E8.70278
G1 X273.869 Y211.917 E.02878
G1 X138.083 Y76.131 E8.74349
G1 X137.451 Y76.131 E.02878
G1 X273.869 Y212.549 E8.7842
G1 X273.869 Y213.181 E.02878
G1 X136.819 Y76.131 E8.8249
